;FLAVOR:Marlin
;TIME:53068
;Filament used: 23.2975m
;Layer height: 0.16
;MINX:49.057
;MINY:49.057
;MINZ:0.2
;MAXX:170.948
;MAXY:170.943
;MAXZ:19.88
;POSTPROCESSED
;Generated with Cura_SteamEngine 4.7.1
M140 S60
M105
M190 S60
M104 S227
M105
M109 S227
M82 ;absolute extrusion mode
; Ender 3 Custom Start G-code
G92 E0 ; Reset Extruder
G28 X Y; Home

;MESH:NONMESH
G0 F300 X97.654 Y107.405 Z16.84
G0 F9000 X97.64 Y107.387
G0 X95.067 Y110
G0 X99.505 Y114.347
G0 X99.441 Y120.558
G0 X105.519 Y120.817
G0 X105.112 Y121.801
G0 X95.908 Y145.01
G0 X95.219 Y145.684
G0 X110.185 Y160.771
G0 X110 Y160.59
;TIME_ELAPSED:45014.258342
;LAYER:104
;TYPE:WALL-OUTER
;MESH:Fidget_Star_8-Point.stl
G1 F1500 E3182.12912
G1 X124.714 Y145.522 E3182.6895
G1 X145.771 Y145.771 E3183.24983
G1 X145.522 Y124.714 E3183.81016
G1 X160.589 Y110 E3184.37052
G1 X145.522 Y95.287 E3184.93086
G1 X145.771 Y74.229 E3185.49121
G1 X124.714 Y74.478 E3186.05154
G1 X110 Y59.41 E3186.61192
G1 X95.286 Y74.478 E3187.1723
G1 X74.228 Y74.229 E3187.73265
G1 X74.477 Y95.287 E3188.29301
G1 X59.411 Y110 E3188.85333
G1 X74.477 Y124.714 E3189.41368
G1 X74.228 Y145.771 E3189.974
G1 X95.286 Y145.522 E3190.53435
G1 X110 Y160.59 E3191.09474
G0 F9000 X110 Y161.412
G1 F1500 X95.046 Y146.1 E3191.66422
G1 X73.646 Y146.354 E3192.23368
G1 X73.9 Y124.953 E3192.80316
G1 X58.588 Y110 E3193.37263
G1 X73.9 Y95.047 E3193.9421
G1 X73.646 Y73.646 E3194.51158
G1 X95.046 Y73.901 E3195.08103
G1 X110 Y58.588 E3195.65054
G1 X124.953 Y73.901 E3196.22002
G1 X146.354 Y73.646 E3196.7895
G1 X146.1 Y95.047 E3197.35898
G1 X161.412 Y110 E3197.92845
G1 X146.1 Y124.953 E3198.49792
G1 X146.354 Y146.354 E3199.0674
G1 X124.953 Y146.1 E3199.63688
G1 X110 Y161.412 E3200.20635
G0 F9000 X110.122 Y161.034
;TYPE:SKIN
G1 F1500 X99.564 Y150.475 E3200.40501
G0 F9000 X99.582 Y150.459
G0 X101.238 Y151.903
G0 X101.257 Y151.886
G1 F1500 X95.07 Y145.699 E3200.52142
G0 F9000 X94.901 Y145.813
G1 F1500 X94.622 Y145.816 E3200.52559
G1 X88.192 Y145.892 E3200.62182
G1 X81.763 Y145.968 E3200.71803
G1 X75.334 Y146.044 E3200.81425
G1 X74.216 Y146.058 E3200.83098
G1 X73.939 Y145.781 E3200.83684
G1 X74.016 Y139.352 E3200.93306
G1 X74.092 Y132.923 E3201.02927
G1 X74.168 Y126.494 E3201.12548
G1 X74.185 Y125.096 E3201.14641
G0 F9000 X74.299 Y124.928
G1 F1500 X68.124 Y118.752 E3201.2626
G0 F9000 X68.106 Y118.77
G0 X69.455 Y120.333
G0 X69.438 Y120.35
G1 F1500 X58.965 Y109.877 E3201.45964
G0 F9000 X59.187 Y109.816
G1 F1500 X59.33 Y109.676 E3201.46264
G1 X63.193 Y105.903 E3201.54338
G1 X67.057 Y102.13 E3201.62414
G1 X70.921 Y98.356 E3201.7049
G1 X74.069 Y95.282 E3201.7707
G1 X74.183 Y94.831 E3201.77765
G1 X74.106 Y88.248 E3201.8761
G1 X74.028 Y81.665 E3201.97454
G1 X73.95 Y75.081 E3202.073
G1 X73.936 Y73.936 E3202.09012
G1 X80.233 Y74.011 E3202.18429
G1 X86.817 Y74.089 E3202.28275
G1 X93.401 Y74.167 E3202.38121
G1 X95.114 Y74.183 E3202.40683
G1 X96.26 Y73.067 E3202.43074
G1 X100.033 Y69.203 E3202.5115
G1 X103.806 Y65.34 E3202.59225
G1 X107.44 Y61.62 E3202.67001
G1 X109.815 Y59.186 E3202.72086
G0 F9000 X109.876 Y58.964
G1 F1500 X120.35 Y69.439 E3202.91794
G0 F9000 X120.332 Y69.455
G0 X118.76 Y68.095
G0 X118.741 Y68.112
G1 F1500 X124.928 Y74.299 E3203.03434
G0 F9000 X125.097 Y74.185
G1 F1500 X125.377 Y74.182 E3203.03854
G1 X131.806 Y74.106 E3203.13495
G1 X138.235 Y74.029 E3203.23137
G1 X144.664 Y73.953 E3203.32778
G1 X145.782 Y73.94 E3203.34455
G1 X146.058 Y74.216 E3203.3504
G1 X145.982 Y80.645 E3203.44681
G1 X145.909 Y86.795 E3203.53904
G1 X145.835 Y92.944 E3203.63125
G1 X145.813 Y94.901 E3203.6606
G0 F9000 X145.698 Y95.069
G1 F1500 X151.945 Y101.317 E3203.77815
G0 F9000 X151.964 Y101.299
G0 X150.543 Y99.665
G0 X150.56 Y99.649
G1 F1500 X161.033 Y110.121 E3203.97519
G0 F9000 X160.811 Y110.182
G1 F1500 X160.668 Y110.322 E3203.97818
G1 X156.804 Y114.095 E3204.05895
G1 X152.941 Y117.868 E3204.13972
G1 X149.077 Y121.641 E3204.22049
G1 X145.929 Y124.716 E3204.28631
G1 X145.814 Y125.166 E3204.29326
G1 X145.892 Y131.75 E3204.39174
G1 X145.97 Y138.333 E3204.49021
G1 X146.048 Y144.917 E3204.58869
G1 X146.061 Y146.061 E3204.6058
G1 X139.478 Y145.984 E3204.70427
G1 X132.895 Y145.906 E3204.80274
G1 X126.311 Y145.827 E3204.90122
G1 X124.884 Y145.815 E3204.92256
G1 X123.737 Y146.931 E3204.9465
G1 X119.964 Y150.794 E3205.02726
G1 X116.331 Y154.515 E3205.10504
G1 X112.697 Y158.235 E3205.18282
G1 X110.182 Y160.811 E3205.23667
G1 F1500 E3198.73667
G0 F9000 X110.246 Y160.875
G0 X109.237 Y160.464
G0 X95.103 Y145.963
G0 X74.047 Y146.15
G0 X74.047 Y146.172
G1 F1500 E3205.23667
G1 X73.826 Y145.951 E3205.24083
G1 F1500 E3198.74083
G0 F9000 X73.849 Y145.952
G0 X74.34 Y124.771
G0 X59.228 Y110
G0 X74.34 Y95.23
G0 X74.099 Y74.1
G0 X95.229 Y74.341
G0 X110 Y59.227
G0 X124.771 Y74.341
G0 X145.951 Y73.85
G0 X145.951 Y73.826
G1 F1500 E3205.24083
G1 X146.173 Y74.048 E3205.24501
G1 F1500 E3198.74501
G0 F9000 X146.151 Y74.047
G0 X145.623 Y95.245
G0 X144.046 Y96.861
G0 X157.512 Y110
G0 X143.37 Y123.823
G0 X143.594 Y143.595
G0 X123.822 Y143.37
G0 X110.142 Y157.469
G0 X110 Y157.33
;TYPE:WALL-OUTER
G1 F1500 E3205.24501
G1 X123.765 Y143.233 E3205.76926
G1 X136.408 Y143.384 E3206.10569
G1 X143.465 Y143.466 E3206.29348
G1 X143.233 Y123.766 E3206.81769
G1 X157.329 Y110 E3207.34195
G1 X143.233 Y96.235 E3207.86618
G1 X143.465 Y76.534 E3208.39042
G1 X123.765 Y76.768 E3208.91464
G1 X110 Y62.67 E3209.43891
G1 X96.235 Y76.768 E3209.96319
G1 X76.534 Y76.534 E3210.48743
G1 X76.767 Y96.235 E3211.01167
G1 X62.671 Y110 E3211.53591
G1 X76.767 Y123.766 E3212.06016
G1 X76.616 Y136.409 E3212.39659
G1 X76.534 Y143.466 E3212.58438
G1 X96.235 Y143.233 E3213.10862
G1 X110 Y157.33 E3213.63288
G0 F9000 X110 Y158.152
G1 F1500 X95.995 Y143.81 E3214.16626
G1 X75.951 Y144.049 E3214.69963
G1 X76.189 Y124.005 E3215.233
G1 X61.848 Y110 E3215.76636
G1 X76.189 Y95.995 E3216.29972
G1 X75.951 Y75.951 E3216.83309
G1 X82.803 Y76.034 E3217.01542
G1 X95.995 Y76.19 E3217.36646
G1 X110 Y61.848 E3217.89984
G1 X124.004 Y76.19 E3218.4332
G1 X144.048 Y75.951 E3218.96657
G1 X143.81 Y95.995 E3219.49995
G1 X158.152 Y110 E3220.03333
G1 X143.81 Y124.005 E3220.56671
G1 X144.048 Y144.049 E3221.10008
G1 X137.196 Y143.966 E3221.28241
G1 X124.004 Y143.81 E3221.63345
G1 X110 Y158.152 E3222.16681
G0 F9000 X110.049 Y157.85
;TYPE:SKIN
G1 F1500 X105.825 Y153.626 E3222.24628
G0 F9000 X105.843 Y153.61
G0 X107.413 Y154.965
G0 X107.431 Y154.949
G1 F1500 X95.893 Y143.411 E3222.46337
G0 F9000 X95.724 Y143.524
G1 F1500 X95.444 Y143.527 E3222.46758
G1 X89.015 Y143.604 E3222.56426
G1 X82.586 Y143.68 E3222.66095
G1 X76.716 Y143.75 E3222.74923
G1 X76.34 Y143.657 E3222.75505
G1 X76.251 Y143.002 E3222.76499
G1 X76.327 Y136.572 E3222.8617
G1 X76.403 Y130.143 E3222.95838
G1 X76.473 Y124.274 E3223.04665
G0 F9000 X76.588 Y124.105
G1 F1500 X65.014 Y112.531 E3223.26441
G0 F9000 X64.996 Y112.549
G0 X66.407 Y114.173
G0 X66.39 Y114.19
G1 F1500 X62.149 Y109.95 E3223.34419
G0 F9000 X62.372 Y109.889
G1 F1500 X62.515 Y109.749 E3223.34719
G1 X66.378 Y105.976 E3223.42818
G1 X70.098 Y102.343 E3223.50616
G1 X73.962 Y98.569 E3223.58716
G1 X76.395 Y96.194 E3223.63815
G1 X76.473 Y95.706 E3223.64556
G1 X76.398 Y89.408 E3223.74002
G1 X76.32 Y82.825 E3223.83876
G1 X76.241 Y76.241 E3223.93751
G1 X82.54 Y76.317 E3224.03198
G1 X89.123 Y76.395 E3224.13071
G1 X95.707 Y76.474 E3224.22946
G1 X96.195 Y76.396 E3224.23687
G1 X99.968 Y72.532 E3224.31787
G1 X103.601 Y68.811 E3224.39586
G1 X107.374 Y64.947 E3224.47685
G1 X109.889 Y62.371 E3224.53085
G0 F9000 X109.949 Y62.149
G1 F1500 X114.156 Y66.355 E3224.60999
G0 F9000 X114.138 Y66.371
G0 X112.586 Y65.033
G0 X112.567 Y65.05
G1 F1500 X124.105 Y76.588 E3224.82707
G0 F9000 X124.274 Y76.473
G1 F1500 X124.554 Y76.47 E3224.83129
G1 X130.982 Y76.394 E3224.92808
G1 X137.411 Y76.317 E3225.02489
G1 X143.281 Y76.247 E3225.11327
G1 X143.657 Y76.34 E3225.11911
G1 X143.747 Y76.996 E3225.12907
G1 X143.67 Y83.425 E3225.22588
G1 X143.594 Y89.854 E3225.32268
G1 X143.524 Y95.724 E3225.41107
G0 F9000 X143.41 Y95.892
G1 F1500 X154.995 Y107.478 E3225.62905
G0 F9000 X155.013 Y107.46
G0 X153.609 Y105.843
G0 X153.626 Y105.826
G1 F1500 X157.849 Y110.049 E3225.70851
G0 F9000 X157.626 Y110.109
G1 F1500 X157.483 Y110.249 E3225.71149
G1 X153.62 Y114.022 E3225.79212
G1 X149.756 Y117.795 E3225.87276
G1 X145.892 Y121.568 E3225.95339
G1 X143.602 Y123.803 E3226.00117
G1 X143.524 Y124.291 E3226.00855
G1 X143.603 Y130.875 E3226.10687
G1 X143.681 Y137.459 E3226.20518
G1 X143.756 Y143.756 E3226.29921
G1 X137.172 Y143.678 E3226.39752
G1 X130.589 Y143.6 E3226.49582
G1 X124.005 Y143.522 E3226.59414
G1 X123.524 Y143.889 E3226.60317
G1 X119.891 Y147.609 E3226.68081
G1 X116.118 Y151.473 E3226.76145
G1 X112.485 Y155.194 E3226.8391
G1 X110.109 Y157.626 E3226.88986
G1 F1500 E3220.38986
G0 F9000 X110.173 Y157.689
G0 X96.052 Y143.673
G0 X76.268 Y143.846
G0 X76.268 Y143.867
G1 F1500 E3226.88986
G1 X76.13 Y143.73 E3226.89245
G1 F1500 E3220.39245
G0 F9000 X76.153 Y143.731
G0 X76.63 Y123.823
G0 X62.488 Y110
G0 X76.63 Y96.178
G0 X76.405 Y76.405
G0 X96.178 Y76.631
G0 X110 Y62.487
G0 X123.822 Y76.631
G0 X143.846 Y76.267
G0 X143.867 Y76.268
G1 F1500 E3226.89245
G1 X143.73 Y76.13 E3226.89504
G1 F1500 E3220.39504
G0 F9000 X143.729 Y76.154
G0 X143.334 Y96.193
G0 X141.756 Y97.81
G0 X154.252 Y110
G0 X141.08 Y122.874
G0 X141.289 Y141.289
G0 X122.874 Y141.081
G0 X110.142 Y154.208
G0 X110 Y154.069
;TYPE:WALL-OUTER
G1 F1500 E3226.89504
G1 X122.817 Y140.944 E3227.38316
G1 X134.578 Y141.084 E3227.69613
G1 X141.16 Y141.16 E3227.87127
G1 X140.943 Y122.817 E3228.35938
G1 X154.069 Y110 E3228.84752
G1 X140.943 Y97.184 E3229.33565
G1 X141.16 Y78.84 E3229.82379
G1 X122.817 Y79.056 E3230.31189
G1 X110 Y65.931 E3230.80002
G1 X97.183 Y79.056 E3231.28815
G1 X85.421 Y78.916 E3231.60113
G1 X78.839 Y78.84 E3231.77628
G1 X79.056 Y97.184 E3232.26441
G1 X65.931 Y110 E3232.75252
G1 X79.056 Y122.817 E3233.24065
G1 X78.839 Y141.16 E3233.72875
G1 X97.183 Y140.944 E3234.21689
G1 X110 Y154.069 E3234.70502
G0 F9000 X110 Y154.891
G1 F1500 X96.943 Y141.522 E3235.20225
G1 X78.256 Y141.743 E3235.69951
G1 X78.479 Y123.057 E3236.19674
G1 X65.108 Y110 E3236.69402
G1 X78.479 Y96.943 E3237.19129
G1 X78.256 Y78.257 E3237.68852
G1 X96.943 Y78.479 E3238.18578
G1 X110 Y65.109 E3238.68304
G1 X123.056 Y78.479 E3239.18027
G1 X141.743 Y78.257 E3239.67753
G1 X141.521 Y96.943 E3240.17477
G1 X154.892 Y110 E3240.67204
G1 X141.521 Y123.057 E3241.16931
G1 X141.743 Y141.743 E3241.66654
G1 X123.056 Y141.522 E3242.1638
G1 X110 Y154.891 E3242.66102
G0 F9000 X110.115 Y154.521
;TYPE:SKIN
G1 F1500 X100.216 Y144.622 E3242.84727
G0 F9000 X100.234 Y144.606
G0 X101.859 Y146.017
G0 X101.877 Y146.001
G1 F1500 X96.997 Y141.12 E3242.93909
G0 F9000 X96.828 Y141.234
G1 F1500 X96.548 Y141.237 E3242.94331
G1 X90.119 Y141.313 E3243.04008
G1 X83.689 Y141.389 E3243.13687
G1 X78.937 Y141.445 E3243.2084
G1 X78.602 Y141.393 E3243.2135
G1 X78.561 Y140.221 E3243.23116
G1 X78.638 Y133.792 E3243.32793
G1 X78.714 Y127.363 E3243.4247
G1 X78.764 Y123.17 E3243.48782
G0 F9000 X78.879 Y123.002
G1 F1500 X73.998 Y118.122 E3243.57965
G0 F9000 X73.981 Y118.139
G0 X75.393 Y119.765
G0 X75.376 Y119.782
G1 F1500 X65.477 Y109.883 E3243.76589
G0 F9000 X65.699 Y109.823
G1 F1500 X65.842 Y109.683 E3243.76889
G1 X69.706 Y105.91 E3243.84973
G1 X73.427 Y102.277 E3243.92757
G1 X77.29 Y98.504 E3244.0084
G1 X78.722 Y97.106 E3244.03836
G1 X78.755 Y96.008 E3244.0548
G1 X78.676 Y89.424 E3244.15336
G1 X78.601 Y83.127 E3244.24762
G1 X78.547 Y78.547 E3244.31619
G1 X85.131 Y78.625 E3244.41475
G1 X91.714 Y78.703 E3244.51329
G1 X96.866 Y78.764 E3244.59042
G1 X97.246 Y78.578 E3244.59675
G1 X101.019 Y74.715 E3244.67758
G1 X104.793 Y70.852 E3244.75842
G1 X108.426 Y67.131 E3244.83626
G1 X109.823 Y65.7 E3244.86619
G0 F9000 X109.883 Y65.477
G1 F1500 X119.692 Y75.286 E3245.05075
G0 F9000 X119.674 Y75.302
G0 X118.14 Y73.981
G0 X118.121 Y73.998
G1 F1500 X123.001 Y78.878 E3245.14256
G0 F9000 X123.17 Y78.764
G1 F1500 X123.45 Y78.761 E3245.14675
G1 X129.879 Y78.685 E3245.24289
G1 X136.308 Y78.609 E3245.33904
G1 X141.061 Y78.552 E3245.41012
G1 X141.446 Y78.937 E3245.41826
G1 X141.369 Y85.366 E3245.5144
G1 X141.293 Y91.795 E3245.61054
G1 X141.233 Y96.827 E3245.6858
G0 F9000 X141.118 Y96.995
G1 F1500 X146.075 Y101.952 E3245.77906
G0 F9000 X146.093 Y101.934
G0 X144.651 Y100.279
G0 X144.668 Y100.262
G1 F1500 X154.521 Y110.115 E3245.96444
G0 F9000 X154.298 Y110.175
G1 F1500 X154.155 Y110.314 E3245.96743
G1 X150.291 Y114.088 E3246.04823
G1 X146.428 Y117.861 E3246.129
G1 X142.707 Y121.494 E3246.2068
G1 X141.276 Y122.891 E3246.23672
G1 X141.243 Y123.989 E3246.25315
G1 X141.321 Y130.573 E3246.35165
G1 X141.399 Y137.157 E3246.45015
G1 X141.45 Y141.45 E3246.51438
G1 X135.154 Y141.376 E3246.60857
G1 X128.57 Y141.298 E3246.70707
G1 X123.132 Y141.234 E3246.78842
G1 X122.752 Y141.419 E3246.79474
G1 X118.979 Y145.283 E3246.87553
G1 X115.205 Y149.147 E3246.95633
G1 X111.572 Y152.867 E3247.03412
G1 X110.174 Y154.298 E3247.06405
G1 F1500 E3240.56405
G0 F9000 X110.113 Y154.238
G0 X110 Y154.252
G0 X97 Y141.386
G0 X78.489 Y141.541
G0 X78.489 Y141.563
G1 F1500 E3247.06405
G1 X78.433 Y141.507 E3247.0651
G1 F1500 E3240.5651
G0 F9000 X78.457 Y141.508
G0 X78.919 Y122.874
G0 X65.748 Y110
G0 X78.919 Y97.127
G0 X78.71 Y78.711
G0 X97.126 Y78.919
G0 X110 Y65.748
G0 X122.874 Y78.919
G0 X141.23 Y78.462
G0 X141.395 Y78.604
G1 F1500 E3247.0651
G1 X141.536 Y78.462 E3247.07233
G1 F1500 E3240.57233
G0 F9000 X141.508 Y78.459
G0 X141.044 Y97.142
G0 X139.468 Y98.757
G0 X150.991 Y110
G0 X138.792 Y121.925
G0 X138.984 Y138.984
G0 X121.926 Y138.791
G0 X110.142 Y150.948
G0 X110 Y150.809
;TYPE:WALL-OUTER
G1 F1500 E3247.07233
G1 X121.869 Y138.654 E3247.52437
G1 X138.855 Y138.855 E3247.97636
G1 X138.655 Y121.868 E3248.42839
G1 X150.808 Y110 E3248.88037
G1 X138.655 Y98.131 E3249.33237
G1 X138.855 Y81.144 E3249.78439
G1 X121.869 Y81.345 E3250.23639
G1 X110 Y69.191 E3250.68841
G1 X98.131 Y81.345 E3251.14043
G1 X87.168 Y81.214 E3251.43215
G1 X87.167 Y81.215 E3251.43219
G1 X81.145 Y81.144 E3251.59243
G1 X81.345 Y98.131 E3252.04446
G1 X69.192 Y110 E3252.49646
G1 X81.345 Y121.868 E3252.94844
G1 X81.145 Y138.855 E3253.40046
G1 X98.131 Y138.654 E3253.85246
G1 X110 Y150.809 E3254.3045
G0 F9000 X110 Y151.631
G1 F1500 X97.891 Y139.231 E3254.76566
G1 X80.562 Y139.438 E3255.22679
G1 X80.768 Y122.108 E3255.68794
G1 X68.368 Y110 E3256.14908
G1 X80.768 Y97.891 E3256.61025
G1 X80.562 Y80.562 E3257.07137
G1 X97.891 Y80.769 E3257.5325
G1 X110 Y68.368 E3257.99368
G1 X122.109 Y80.769 E3258.45486
G1 X139.438 Y80.562 E3258.91599
G1 X139.231 Y97.891 E3259.37711
G1 X151.632 Y110 E3259.83829
G1 X139.231 Y122.108 E3260.29946
G1 X139.438 Y139.438 E3260.76061
G1 X122.109 Y139.231 E3261.22173
G1 X110 Y151.631 E3261.6829
G0 F9000 X110.042 Y151.337
;TYPE:SKIN
G1 F1500 X106.459 Y147.754 E3261.75031
G0 F9000 X106.477 Y147.738
G0 X108.05 Y149.097
G0 X108.068 Y149.08
G1 F1500 X97.82 Y138.832 E3261.94312
G0 F9000 X97.65 Y138.945
G1 F1500 X97.371 Y138.949 E3261.94731
G1 X90.942 Y139.025 E3262.04369
G1 X84.513 Y139.101 E3262.14007
G1 X81.158 Y139.141 E3262.19037
G1 X80.856 Y138.839 E3262.19677
G1 X80.933 Y132.41 E3262.29316
G1 X81.008 Y125.98 E3262.38955
G1 X81.052 Y122.347 E3262.44402
G0 F9000 X81.166 Y122.178
G1 F1500 X70.869 Y111.881 E3262.63776
G0 F9000 X70.851 Y111.899
G0 X72.243 Y113.505
G0 X72.226 Y113.521
G1 F1500 X68.662 Y109.957 E3262.70481
G0 F9000 X68.884 Y109.897
G1 F1500 X69.027 Y109.757 E3262.7078
G1 X72.748 Y106.123 E3262.78553
G1 X76.612 Y102.35 E3262.86623
G1 X80.475 Y98.577 E3262.94693
G1 X81.035 Y98.006 E3262.95888
G1 X81.019 Y94.878 E3263.00562
G1 X80.944 Y88.581 E3263.09973
G1 X80.869 Y82.283 E3263.19386
G1 X80.852 Y80.852 E3263.21524
G1 X87.435 Y80.93 E3263.31363
G1 X94.019 Y81.008 E3263.41202
G1 X97.74 Y81.053 E3263.46763
G1 X98.158 Y80.904 E3263.47426
G1 X101.792 Y77.184 E3263.55198
G1 X105.425 Y73.464 E3263.62968
G1 X109.058 Y69.743 E3263.7074
G1 X109.897 Y68.884 E3263.72534
G0 F9000 X109.956 Y68.661
G1 F1500 X113.522 Y72.227 E3263.79243
G0 F9000 X113.505 Y72.243
G0 X111.958 Y70.911
G0 X111.94 Y70.928
G1 F1500 X122.178 Y81.165 E3263.98505
G0 F9000 X122.347 Y81.052
G1 F1500 X122.626 Y81.048 E3263.98921
G1 X129.055 Y80.972 E3264.08508
G1 X135.205 Y80.899 E3264.17679
G1 X138.839 Y80.856 E3264.23098
G1 X139.141 Y81.158 E3264.23735
G1 X139.065 Y87.587 E3264.33321
G1 X138.989 Y94.017 E3264.4291
G1 X138.946 Y97.651 E3264.48329
G0 F9000 X138.832 Y97.82
G1 F1500 X149.119 Y108.107 E3264.67684
G0 F9000 X149.137 Y108.09
G0 X147.755 Y106.493
G0 X147.772 Y106.477
G1 F1500 X151.337 Y110.042 E3264.74391
G0 F9000 X151.113 Y110.101
G1 F1500 X150.97 Y110.241 E3264.7469
G1 X147.107 Y114.014 E3264.8277
G1 X143.386 Y117.647 E3264.90551
G1 X139.522 Y121.42 E3264.98632
G1 X138.962 Y121.992 E3264.9983
G1 X138.978 Y125.119 E3265.04508
G1 X139.057 Y131.703 E3265.14361
G1 X139.135 Y138.287 E3265.24213
G1 X139.145 Y139.145 E3265.25496
G1 X132.562 Y139.067 E3265.35347
G1 X125.978 Y138.989 E3265.45199
G1 X122.256 Y138.944 E3265.50769
G1 X121.84 Y139.093 E3265.5143
G1 X118.066 Y142.957 E3265.59511
G1 X114.293 Y146.82 E3265.67591
G1 X110.66 Y150.541 E3265.75372
G1 X110.101 Y151.113 E3265.76569
G1 F1500 E3259.26569
G0 F9000 X110.165 Y151.177
G0 X97.948 Y139.094
G0 X80.989 Y139.234
G0 X80.989 Y139.255
G1 F1500 E3265.76569
G1 X80.743 Y139.008 E3265.77033
G1 F1500 E3259.27033
G0 F9000 X80.765 Y139.009
G0 X81.208 Y121.925
G0 X69.009 Y110
G0 X81.208 Y98.074
G0 X81.016 Y81.015
G0 X98.074 Y81.208
G0 X110 Y69.008
G0 X121.926 Y81.208
G0 X139.009 Y80.766
G0 X139.009 Y80.743
G1 F1500 E3265.77033
G1 X139.256 Y80.99 E3265.77497
G1 F1500 E3259.27497
G0 F9000 X139.235 Y80.989
G0 X138.756 Y98.089
G0 X137.165 Y99.719
G0 X147.731 Y110
G0 X136.502 Y120.977
G0 X136.679 Y136.679
G0 X120.977 Y136.502
G0 X110.142 Y147.687
G0 X110 Y147.548
;TYPE:WALL-OUTER
G1 F1500 E3265.77497
G1 X120.92 Y136.365 E3266.19087
G1 X136.55 Y136.55 E3266.60678
G1 X136.365 Y120.92 E3267.02269
G1 X147.548 Y110 E3267.43859
G1 X136.365 Y99.079 E3267.8545
G1 X136.55 Y83.449 E3268.27041
G1 X120.92 Y83.635 E3268.68633
G1 X110 Y72.452 E3269.10222
G1 X99.08 Y83.635 E3269.51811
G1 X88.998 Y83.514 E3269.78639
G1 X88.997 Y83.515 E3269.78643
G1 X83.45 Y83.449 E3269.93404
G1 X83.634 Y99.079 E3270.34995
G1 X72.452 Y110 E3270.76584
G1 X83.634 Y120.92 E3271.18172
G1 X83.515 Y130.917 E3271.44774
G1 X83.45 Y136.55 E3271.59763
G1 X99.08 Y136.365 E3272.01354
G1 X110 Y147.548 E3272.42943
G0 F9000 X110 Y148.371
G1 F1500 X98.84 Y136.942 E3272.85447
G1 X82.867 Y137.132 E3273.27951
G1 X82.933 Y131.705 E3273.42393
G1 X83.057 Y121.16 E3273.70453
G1 X71.629 Y110 E3274.12955
G1 X83.057 Y98.839 E3274.55458
G1 X82.867 Y82.867 E3274.9796
G1 X98.84 Y83.057 E3275.40464
G1 X110 Y71.628 E3275.82968
G1 X121.16 Y83.057 E3276.25471
G1 X137.133 Y82.867 E3276.67975
G1 X137.067 Y88.294 E3276.82417
G1 X136.943 Y98.839 E3277.10477
G1 X148.371 Y110 E3277.52981
G1 X136.943 Y121.16 E3277.95482
G1 X137.133 Y137.132 E3278.37984
G1 X121.16 Y136.942 E3278.80488
G1 X110 Y148.371 E3279.22992
G0 F9000 X110.108 Y148.009
;TYPE:SKIN
G1 F1500 X100.917 Y138.818 E3279.40284
G0 F9000 X100.935 Y138.802
G0 X102.556 Y140.21
G0 X102.575 Y140.193
G1 F1500 X98.923 Y136.541 E3279.47156
G0 F9000 X98.754 Y136.655
G1 F1500 X98.474 Y136.658 E3279.47577
G1 X92.045 Y136.734 E3279.57255
G1 X85.616 Y136.811 E3279.66933
G1 X83.659 Y136.833 E3279.6988
G1 X83.269 Y136.726 E3279.70488
G1 X83.167 Y136.059 E3279.71504
G1 X83.243 Y129.629 E3279.81184
G1 X83.319 Y123.2 E3279.90862
G1 X83.342 Y121.243 E3279.93808
G0 F9000 X83.456 Y121.075
G1 F1500 X79.846 Y117.464 E3280.00601
G0 F9000 X79.828 Y117.482
G0 X81.245 Y119.112
G0 X81.228 Y119.129
G1 F1500 X71.99 Y109.891 E3280.17982
G0 F9000 X72.213 Y109.831
G1 F1500 X72.355 Y109.691 E3280.18281
G1 X76.219 Y105.918 E3280.26387
G1 X80.226 Y102.004 E3280.34795
G1 X83.23 Y99.069 E3280.41099
G1 X83.341 Y98.615 E3280.418
G1 X83.263 Y92.031 E3280.51683
G1 X83.184 Y85.447 E3280.61566
G1 X83.157 Y83.157 E3280.65003
G1 X89.741 Y83.235 E3280.74886
G1 X96.324 Y83.314 E3280.84768
G1 X98.899 Y83.342 E3280.88633
G1 X99.909 Y82.373 E3280.90734
G1 X103.542 Y78.652 E3280.98539
G1 X107.175 Y74.931 E3281.06345
G1 X109.83 Y72.212 E3281.12049
G0 F9000 X109.89 Y71.989
G1 F1500 X119.092 Y81.191 E3281.29362
G0 F9000 X119.074 Y81.207
G0 X117.443 Y79.789
G0 X117.424 Y79.806
G1 F1500 X121.075 Y83.457 E3281.36232
G0 F9000 X121.244 Y83.343
G1 F1500 X121.524 Y83.34 E3281.36654
G1 X127.952 Y83.263 E3281.46359
G1 X134.381 Y83.187 E3281.56065
G1 X136.338 Y83.163 E3281.5902
G1 X136.728 Y83.271 E3281.5963
G1 X136.83 Y83.939 E3281.60651
G1 X136.754 Y90.368 E3281.70357
G1 X136.678 Y96.797 E3281.80063
G1 X136.655 Y98.754 E3281.83017
G0 F9000 X136.54 Y98.922
G1 F1500 X140.152 Y102.534 E3281.89813
G0 F9000 X140.17 Y102.516
G0 X138.702 Y100.836
G0 X138.72 Y100.819
G1 F1500 X148.008 Y110.107 E3282.07288
G0 F9000 X147.785 Y110.167
G1 F1500 X147.642 Y110.307 E3282.07588
G1 X143.778 Y114.08 E3282.15684
G1 X139.915 Y117.854 E3282.23779
G1 X136.767 Y120.928 E3282.30375
G1 X136.657 Y121.383 E3282.31076
G1 X136.735 Y127.967 E3282.40946
G1 X136.813 Y134.55 E3282.50815
G1 X136.84 Y136.84 E3282.54248
G1 X130.256 Y136.762 E3282.64118
G1 X123.673 Y136.683 E3282.73987
G1 X121.099 Y136.655 E3282.77845
G1 X120.089 Y137.625 E3282.79945
G1 X116.456 Y141.346 E3282.8774
G1 X112.683 Y145.209 E3282.95834
G1 X110.167 Y147.785 E3283.01232
G1 F1500 E3276.51232
G0 F9000 X110.106 Y147.724
G0 X110 Y147.731
G0 X98.897 Y136.805
G0 X83.21 Y136.929
G0 X83.21 Y136.951
G1 F1500 E3283.01232
G1 X83.046 Y136.786 E3283.01542
G1 F1500 E3276.51542
G0 F9000 X83.071 Y136.787
G0 X83.497 Y120.977
G0 X72.269 Y110
G0 X83.497 Y99.022
G0 X83.321 Y83.32
G0 X99.023 Y83.498
G0 X110 Y72.269
G0 X120.977 Y83.498
G0 X136.786 Y83.07
G0 X136.786 Y83.046
G1 F1500 E3283.01542
G1 X136.953 Y83.213 E3283.01856
G1 F1500 E3276.51856
G0 F9000 X136.929 Y83.212
G0 X136.466 Y99.037
G0 X134.875 Y100.667
G0 X144.47 Y110
G0 X134.213 Y120.029
G0 X134.374 Y134.373
G0 X120.029 Y134.212
G0 X110.142 Y144.427
G0 X110 Y144.288
;TYPE:WALL-OUTER
G1 F1500 E3283.01856
G1 X119.972 Y134.075 E3283.39836
G1 X134.245 Y134.244 E3283.77817
G1 X134.076 Y119.972 E3284.15794
G1 X144.287 Y110 E3284.53771
G1 X134.076 Y100.028 E3284.91747
G1 X134.245 Y85.755 E3285.29728
G1 X119.972 Y85.924 E3285.67708
G1 X110 Y75.712 E3286.05687
G1 X100.028 Y85.924 E3286.43665
G1 X85.755 Y85.755 E3286.81645
G1 X85.924 Y100.028 E3287.19626
G1 X75.713 Y110 E3287.57602
G1 X85.924 Y119.972 E3287.95579
G1 X85.755 Y134.244 E3288.33557
G1 X100.028 Y134.075 E3288.71537
G1 X110 Y144.288 E3289.09517
G0 F9000 X110 Y145.111
G1 F1500 X99.788 Y134.653 E3289.4841
G1 X85.173 Y134.827 E3289.87301
G1 X85.346 Y120.211 E3290.26194
G1 X74.889 Y110 E3290.65083
G1 X85.346 Y99.788 E3291.03974
G1 X85.173 Y85.172 E3291.42867
G1 X99.788 Y85.347 E3291.81758
G1 X110 Y74.888 E3292.20653
G1 X120.212 Y85.347 E3292.59547
G1 X134.827 Y85.172 E3292.98438
G1 X134.653 Y99.788 E3293.37331
G1 X145.111 Y110 E3293.76224
G1 X134.653 Y120.211 E3294.15115
G1 X134.827 Y134.827 E3294.54008
G1 X120.212 Y134.653 E3294.92899
G1 X110 Y145.111 E3295.31792
G0 F9000 X110.035 Y144.824
;TYPE:SKIN
G1 F1500 X107.111 Y141.9 E3295.37293
G0 F9000 X107.128 Y141.884
G0 X108.697 Y143.238
G0 X108.715 Y143.222
G1 F1500 X99.746 Y134.253 E3295.54168
G0 F9000 X99.577 Y134.366
G1 F1500 X99.297 Y134.37 E3295.54591
G1 X92.868 Y134.446 E3295.64304
G1 X86.439 Y134.522 E3295.74016
G1 X85.532 Y134.464 E3295.75389
G1 X85.475 Y133.558 E3295.76761
G1 X85.551 Y127.129 E3295.86474
G1 X85.627 Y120.7 E3295.96186
G1 X85.63 Y120.42 E3295.96609
G0 F9000 X85.745 Y120.252
G1 F1500 X76.726 Y111.233 E3296.13578
G0 F9000 X76.708 Y111.25
G0 X75.47 Y110
G0 X75.397 Y109.904
G1 F1500 X75.54 Y109.764 E3296.13879
G1 X79.261 Y106.131 E3296.21677
G1 X83.124 Y102.357 E3296.29776
G1 X85.557 Y99.982 E3296.34875
G1 X85.629 Y99.488 E3296.35623
G1 X85.551 Y92.905 E3296.45496
G1 X85.473 Y86.322 E3296.55369
G1 X85.462 Y85.462 E3296.56659
G1 X92.047 Y85.541 E3296.66534
G1 X98.63 Y85.62 E3296.76407
G1 X99.775 Y85.633 E3296.78124
G1 X100.262 Y85.272 E3296.79033
G1 X104.035 Y81.408 E3296.87132
G1 X107.808 Y77.544 E3296.95231
G1 X109.904 Y75.397 E3296.9973
G0 F9000 X109.964 Y75.174
G1 F1500 X112.929 Y78.14 E3297.0531
G0 F9000 X112.912 Y78.156
G0 X111.301 Y76.76
G0 X111.283 Y76.776
G1 F1500 X120.251 Y85.745 E3297.22184
G0 F9000 X120.42 Y85.631
G1 F1500 X120.7 Y85.627 E3297.22606
G1 X127.129 Y85.551 E3297.32305
G1 X133.558 Y85.474 E3297.42004
G1 X134.464 Y85.532 E3297.43373
G1 X134.523 Y86.439 E3297.44744
G1 X134.447 Y92.869 E3297.54444
G1 X134.37 Y99.298 E3297.64143
G1 X134.367 Y99.577 E3297.64563
G0 F9000 X134.253 Y99.746
G1 F1500 X143.272 Y108.765 E3297.81533
G0 F9000 X143.29 Y108.748
G0 X144.53 Y110
G0 X144.521 Y110.014
G1 F1500 X144.681 Y110.174 E3297.81834
G0 F9000 X144.823 Y110.034
G1 F1500 X141.901 Y107.111 E3297.87332
G0 F9000 X141.884 Y107.128
G0 X144.47 Y110
G0 X144.395 Y110.173
G0 X144.457 Y110.233
G1 F1500 X144.314 Y110.373 E3297.87632
G1 X140.593 Y114.006 E3297.95426
G1 X136.73 Y117.779 E3298.0352
G1 X134.44 Y120.015 E3298.08317
G1 X134.368 Y120.509 E3298.09065
G1 X134.443 Y126.806 E3298.18503
G1 X134.521 Y133.389 E3298.2837
G1 X134.535 Y134.535 E3298.30088
G1 X127.951 Y134.456 E3298.39957
G1 X121.366 Y134.377 E3298.49827
G1 X120.222 Y134.364 E3298.51542
G1 X119.735 Y134.726 E3298.52451
G1 X115.963 Y138.59 E3298.60544
G1 X112.19 Y142.454 E3298.68639
G1 X110.094 Y144.601 E3298.73136
G0 F9000 X110 Y144.531
G0 X99.845 Y134.516
G0 X85.431 Y134.625
G0 X85.431 Y134.646
G1 F1500 X85.352 Y134.566 E3298.73285
G0 F9000 X85.374 Y134.567
G0 X85.482 Y120.154
G0 X78.113 Y112.87
G0 X78.097 Y112.886
G1 F1500 X75.175 Y109.965 E3298.78782
G1 F1500 E3292.28782
G0 F9000 X75.192 Y109.983
G0 X85.787 Y99.971
G0 X85.626 Y85.626
G0 X99.971 Y85.787
G0 X110 Y75.529
G0 X120.029 Y85.787
G0 X134.565 Y85.374
G0 X134.565 Y85.351
G1 F1500 E3298.78782
G1 X134.647 Y85.432 E3298.78935
G1 F1500 E3292.28935
G0 F9000 X134.626 Y85.431
G0 X134.177 Y99.986
G0 X132.586 Y101.616
G0 X141.21 Y110
G0 X131.923 Y119.081
G0 X132.068 Y132.068
G0 X119.08 Y131.924
G0 X110.142 Y141.167
G0 X110 Y141.028
;TYPE:WALL-OUTER
G1 F1500 E3298.78935
G1 X113.272 Y137.679 E3298.91393
G1 X119.023 Y131.787 E3299.13301
G1 X131.939 Y131.939 E3299.47671
G1 X131.786 Y119.024 E3299.82037
G1 X141.027 Y110 E3300.16405
G1 X131.786 Y100.976 E3300.50773
G1 X131.885 Y92.743 E3300.72681
G1 X131.939 Y88.06 E3300.85142
G1 X119.023 Y88.213 E3301.19511
G1 X113.273 Y82.322 E3301.41415
G1 X110 Y78.972 E3301.53877
G1 X106.728 Y82.321 E3301.66335
G1 X100.977 Y88.213 E3301.88243
G1 X88.061 Y88.06 E3302.22612
G1 X88.213 Y100.976 E3302.56982
G1 X78.973 Y110 E3302.91347
G1 X88.213 Y119.024 E3303.25713
G1 X88.061 Y131.939 E3303.6008
G1 X100.977 Y131.787 E3303.94449
G1 X106.727 Y137.678 E3304.16353
G1 X110 Y141.028 E3304.28815
G0 F9000 X110 Y141.85
G1 F1500 X100.736 Y132.364 E3304.64095
G1 X87.478 Y132.521 E3304.99375
G1 X87.636 Y119.263 E3305.34654
G1 X78.149 Y110 E3305.69935
G1 X87.636 Y100.736 E3306.05217
G1 X87.532 Y92.04 E3306.28357
G1 X87.533 Y92.039 E3306.2836
G1 X87.478 Y87.478 E3306.40497
G1 X100.736 Y87.635 E3306.75777
G1 X110 Y78.149 E3307.11057
G1 X119.264 Y87.635 E3307.46337
G1 X132.522 Y87.478 E3307.81617
G1 X132.364 Y100.736 E3308.16896
G1 X141.851 Y110 E3308.52178
G1 X132.364 Y119.263 E3308.87458
G1 X132.522 Y132.521 E3309.22738
G1 X119.264 Y132.364 E3309.58017
G1 X110 Y141.85 E3309.93298
G0 F9000 X110.1 Y141.496
;TYPE:SKIN
G1 F1500 X101.52 Y132.915 E3310.09442
G0 F9000 X101.537 Y132.9
G0 X100.816 Y132.172
G0 X100.681 Y132.076
G1 F1500 X100.401 Y132.08 E3310.09861
G1 X93.971 Y132.155 E3310.19489
G1 X88.101 Y132.225 E3310.28279
G1 X87.773 Y131.896 E3310.28975
G1 X87.849 Y125.467 E3310.38602
G1 X87.922 Y119.317 E3310.47811
G0 F9000 X88.036 Y119.149
G1 F1500 X85.738 Y116.851 E3310.52134
G0 F9000 X85.72 Y116.868
G0 X87.049 Y118.411
G0 X87.032 Y118.427
G1 F1500 X78.502 Y109.898 E3310.68182
G0 F9000 X78.725 Y109.838
G1 F1500 X78.868 Y109.698 E3310.68482
G1 X82.589 Y106.065 E3310.76276
G1 X86.452 Y102.292 E3310.84369
G1 X87.883 Y100.894 E3310.87367
G1 X87.908 Y99.504 E3310.89451
G1 X87.829 Y92.92 E3310.99319
G1 X87.768 Y87.768 E3311.0704
G1 X94.352 Y87.846 E3311.16909
G1 X100.649 Y87.921 E3311.26347
G1 X101.034 Y87.74 E3311.26984
G1 X104.807 Y83.876 E3311.35078
G1 X108.44 Y80.156 E3311.42871
G1 X109.838 Y78.725 E3311.45869
G0 F9000 X109.897 Y78.502
G1 F1500 X118.538 Y87.143 E3311.62127
G0 F9000 X119.317 Y87.921
G1 F1500 X119.596 Y87.918 E3311.62546
G1 X126.025 Y87.842 E3311.72196
G1 X131.896 Y87.772 E3311.81008
G1 X132.225 Y88.101 E3311.81706
G1 X132.149 Y94.531 E3311.91358
G1 X132.076 Y100.68 E3312.00588
G0 F9000 X131.961 Y100.848
G1 F1500 X134.305 Y103.192 E3312.04998
G0 F9000 X134.323 Y103.174
G0 X132.894 Y101.532
G0 X132.911 Y101.515
G1 F1500 X141.496 Y110.1 E3312.2115
G0 F9000 X141.272 Y110.16
G1 F1500 X141.129 Y110.3 E3312.2145
G1 X137.266 Y114.073 E3312.29534
G1 X133.545 Y117.706 E3312.37319
G1 X132.114 Y119.103 E3312.40313
G1 X132.089 Y120.493 E3312.42394
G1 X132.168 Y127.076 E3312.5225
G1 X132.229 Y132.229 E3312.59965
G1 X125.645 Y132.151 E3312.69822
G1 X119.349 Y132.077 E3312.79248
G1 X118.963 Y132.257 E3312.79885
G1 X115.331 Y135.978 E3312.8767
G1 X111.697 Y139.698 E3312.95455
G1 X110.16 Y141.272 E3312.98748
G0 F9000 X110.224 Y141.335
G0 X110.044 Y141.236
G0 X103.13 Y134.278
G0 X103.149 Y134.261
G1 F1500 X100.85 Y131.963 E3313.03073
G0 F9000 X100.85 Y131.99
G0 X87.932 Y132.315
G0 X87.932 Y132.338
G1 F1500 X87.658 Y132.064 E3313.03588
G1 F1500 E3306.53588
G0 F9000 X87.683 Y132.065
G0 X88.076 Y119.081
G0 X78.79 Y110
G0 X88.076 Y100.919
G0 X87.932 Y87.931
G0 X100.92 Y88.076
G0 X110 Y78.789
G0 X119.148 Y88.011
G0 X119.148 Y88.036
G1 F1500 E3313.03588
G1 X116.85 Y85.737 E3313.07913
G0 F9000 X116.869 Y85.72
G0 X119.207 Y87.771
G0 X132.065 Y87.684
G0 X132.065 Y87.659
G1 F1500 X132.34 Y87.934 E3313.0843
G1 F1500 E3306.5843
G0 F9000 X132.317 Y87.933
G0 X132.245 Y100.785
G0 X130.419 Y102.656
G0 X137.95 Y110
G0 X129.635 Y118.133
G0 X129.763 Y129.763
G0 X118.132 Y129.634
G0 X110.142 Y137.906
G0 X110 Y137.767
;TYPE:WALL-OUTER
G1 F1500 E3313.0843
G1 X118.075 Y129.497 E3313.39185
G1 X129.634 Y129.634 E3313.69944
G1 X129.498 Y118.076 E3314.00699
G1 X137.767 Y110 E3314.31454
G1 X129.498 Y101.924 E3314.62209
G1 X129.634 Y90.366 E3314.92965
G1 X118.075 Y90.502 E3315.23723
G1 X110 Y82.232 E3315.54478
G1 X101.924 Y90.502 E3315.85235
G1 X94.574 Y90.414 E3316.04794
G1 X90.366 Y90.366 E3316.15991
G1 X90.502 Y101.924 E3316.46747
G1 X82.233 Y110 E3316.77502
G1 X90.502 Y118.076 E3317.08257
G1 X90.366 Y129.634 E3317.39012
G1 X101.924 Y129.497 E3317.69768
G1 X110 Y137.767 E3318.00525
G0 F9000 X110 Y138.59
G1 F1500 X101.685 Y130.075 E3318.32192
G1 X89.784 Y130.217 E3318.63861
G1 X89.924 Y118.315 E3318.95532
G1 X81.41 Y110 E3319.27198
G1 X89.924 Y101.684 E3319.58865
G1 X89.784 Y89.783 E3319.90534
G1 X93.87 Y89.833 E3320.01407
G1 X93.871 Y89.832 E3320.0141
G1 X101.685 Y89.925 E3320.22203
G1 X110 Y81.409 E3320.53873
G1 X118.315 Y89.925 E3320.85542
G1 X130.216 Y89.783 E3321.17211
G1 X130.075 Y101.684 E3321.48879
G1 X138.59 Y110 E3321.80549
G1 X130.075 Y118.315 E3322.12216
G1 X130.216 Y130.217 E3322.43887
G1 X118.315 Y130.075 E3322.75556
G1 X110 Y138.59 E3323.07223
G0 F9000 X110.027 Y138.311
;TYPE:SKIN
G1 F1500 X107.746 Y136.03 E3323.11515
G0 F9000 X107.764 Y136.014
G0 X109.337 Y137.373
G0 X109.355 Y137.356
G1 F1500 X101.673 Y129.674 E3323.25969
G0 F9000 X101.504 Y129.788
G1 F1500 X101.225 Y129.792 E3323.2639
G1 X94.795 Y129.868 E3323.36097
G1 X90.323 Y129.921 E3323.42849
G1 X90.077 Y129.675 E3323.43374
G1 X90.153 Y123.245 E3323.53082
G1 X90.209 Y118.493 E3323.60256
G0 F9000 X90.324 Y118.325
G1 F1500 X82.648 Y110.649 E3323.74698
G0 F9000 X81.91 Y109.911
G1 F1500 X82.053 Y109.772 E3323.74997
G1 X85.774 Y106.138 E3323.82798
G1 X89.494 Y102.504 E3323.90598
G1 X90.193 Y101.79 E3323.92097
G1 X90.171 Y98.374 E3323.9722
G1 X90.094 Y91.791 E3324.07095
G1 X90.073 Y90.073 E3324.09672
G1 X96.371 Y90.148 E3324.19119
G1 X101.523 Y90.209 E3324.26847
G1 X101.947 Y90.067 E3324.27517
G1 X105.58 Y86.346 E3324.35317
G1 X109.213 Y82.626 E3324.43116
G1 X109.911 Y81.91 E3324.44616
G0 F9000 X109.972 Y81.687
G1 F1500 X112.279 Y83.995 E3324.48957
G0 F9000 X112.261 Y84.011
G0 X110.661 Y82.624
G0 X110.643 Y82.641
G1 F1500 X118.325 Y90.323 E3324.63411
G0 F9000 X118.493 Y90.209
G1 F1500 X118.773 Y90.206 E3324.63833
G1 X124.922 Y90.133 E3324.73097
G1 X129.674 Y90.076 E3324.80257
G1 X129.92 Y90.323 E3324.80782
G1 X129.848 Y96.472 E3324.90046
G1 X129.789 Y101.505 E3324.97629
G0 F9000 X129.674 Y101.673
G1 F1500 X137.351 Y109.349 E3325.12072
G0 F9000 X138.087 Y110.086
G1 F1500 X137.945 Y110.226 E3325.12371
G1 X134.224 Y113.859 E3325.20172
G1 X130.36 Y117.633 E3325.28273
G1 X129.804 Y118.207 E3325.29472
G1 X129.826 Y121.623 E3325.34596
G1 X129.904 Y128.207 E3325.44472
G1 X129.924 Y129.924 E3325.47048
G1 X123.627 Y129.85 E3325.56494
G1 X118.474 Y129.788 E3325.64224
G1 X118.051 Y129.93 E3325.64893
G1 X114.418 Y133.651 E3325.72694
G1 X110.645 Y137.515 E3325.80794
G1 X110.086 Y138.088 E3325.81995
G0 F9000 X110 Y138.01
G0 X101.742 Y129.938
G0 X90.154 Y130.012
G0 X90.154 Y130.035
G1 F1500 X89.964 Y129.845 E3325.82352
G0 F9000 X89.988 Y129.846
G0 X90.06 Y118.258
G0 X83.984 Y112.235
G0 X83.967 Y112.251
G1 F1500 X81.688 Y109.972 E3325.8664
G1 F1500 E3319.3664
G0 F9000 X81.705 Y109.991
G0 X90.365 Y101.867
G0 X90.237 Y90.237
G0 X101.867 Y90.365
G0 X110 Y82.049
G0 X118.132 Y90.365
G0 X129.844 Y89.988
G0 X129.844 Y89.963
G1 F1500 E3325.8664
G1 X130.034 Y90.153 E3325.86998
G0 F9000 X130.012 Y90.152
G0 X129.938 Y101.741
G0 X135.997 Y107.747
G0 X136.014 Y107.73
G1 F1500 X138.31 Y110.026 E3325.91318
G1 F1500 E3319.41318
G0 F9000 X138.296 Y110.008
G0 X129.938 Y118.258
G0 X130.084 Y128.929
G0 X129.735 Y129.735
G0 X128.771 Y128.771
G0 X117.725 Y128.65
G0 X117.318 Y127.666
G0 X110.142 Y134.646
G0 X110 Y134.507
;TYPE:WALL-OUTER
G1 F1500 E3325.91318
G1 X117.127 Y127.208 E3326.18462
G1 X127.328 Y127.329 E3326.45607
G1 X127.208 Y117.128 E3326.72751
G1 X134.507 Y110 E3326.99897
G1 X127.208 Y102.872 E3327.27043
G1 X127.328 Y92.671 E3327.54188
G1 X117.127 Y92.792 E3327.81333
G1 X110 Y85.493 E3328.08477
G1 X102.872 Y92.792 E3328.35623
G1 X92.671 Y92.671 E3328.62768
G1 X92.792 Y102.872 E3328.89913
G1 X85.493 Y110 E3329.17059
G1 X92.792 Y117.128 E3329.44205
G1 X92.671 Y127.329 E3329.7135
G1 X102.872 Y127.208 E3329.98494
G1 X110 Y134.507 E3330.2564
G0 F9000 X110 Y135.329
G1 F1500 X102.633 Y127.785 E3330.53697
G1 X95.701 Y127.868 E3330.72143
G1 X95.7 Y127.867 E3330.72147
G1 X92.089 Y127.911 E3330.81756
G1 X92.214 Y117.367 E3331.09813
G1 X84.67 Y110 E3331.3787
G1 X92.214 Y102.632 E3331.65929
G1 X92.089 Y92.089 E3331.93983
G1 X102.633 Y92.214 E3332.22041
G1 X110 Y84.67 E3332.50098
G1 X117.367 Y92.214 E3332.78154
G1 X127.911 Y92.089 E3333.06212
G1 X127.786 Y102.632 E3333.34267
G1 X135.33 Y110 E3333.62325
G1 X127.786 Y117.367 E3333.90382
G1 X127.911 Y127.911 E3334.1844
G1 X117.367 Y127.785 E3334.46497
G1 X110 Y135.329 E3334.74554
G0 F9000 X110.092 Y134.983
;TYPE:SKIN
G1 F1500 X102.497 Y127.387 E3334.88845
G0 F9000 X102.327 Y127.5
G1 F1500 X102.047 Y127.503 E3334.8927
G1 X95.619 Y127.58 E3334.99042
G1 X92.824 Y127.613 E3335.03291
G1 X92.463 Y127.535 E3335.03853
G1 X92.391 Y126.615 E3335.05255
G1 X92.464 Y120.465 E3335.14604
G1 X92.497 Y117.67 E3335.18853
G0 F9000 X92.612 Y117.502
G1 F1500 X85.016 Y109.906 E3335.33145
G0 F9000 X85.238 Y109.845
G1 F1500 X85.381 Y109.706 E3335.33445
G1 X89.244 Y105.932 E3335.41554
G1 X92.392 Y102.857 E3335.48161
G1 X92.498 Y102.398 E3335.48869
G1 X92.423 Y96.1 E3335.58326
G1 X92.379 Y92.379 E3335.63914
G1 X98.962 Y92.457 E3335.73799
G1 X102.683 Y92.501 E3335.79387
G1 X103.557 Y91.677 E3335.8119
G1 X107.33 Y87.814 E3335.89298
G1 X109.845 Y85.238 E3335.94704
G0 F9000 X109.905 Y85.015
G1 F1500 X117.502 Y92.611 E3336.08997
G0 F9000 X117.671 Y92.498
G1 F1500 X117.95 Y92.494 E3336.09422
G1 X124.379 Y92.417 E3336.19222
G1 X127.174 Y92.385 E3336.23483
G1 X127.536 Y92.463 E3336.24047
G1 X127.606 Y93.382 E3336.25452
G1 X127.53 Y99.812 E3336.35253
G1 X127.5 Y102.327 E3336.39087
G0 F9000 X127.386 Y102.496
G1 F1500 X134.983 Y110.092 E3336.5338
G0 F9000 X134.76 Y110.152
G1 F1500 X134.617 Y110.292 E3336.5368
G1 X130.753 Y114.066 E3336.61793
G1 X127.605 Y117.14 E3336.68402
G1 X127.5 Y117.601 E3336.69112
G1 X127.578 Y124.184 E3336.79001
G1 X127.619 Y127.619 E3336.8416
G1 X121.035 Y127.54 E3336.9405
G1 X117.314 Y127.496 E3336.9964
G1 X116.441 Y128.32 E3337.01443
G1 X112.668 Y132.184 E3337.09555
G1 X110.152 Y134.76 E3337.14963
G0 F9000 X110.215 Y134.823
G0 X110.094 Y134.749
G0 X103.784 Y128.427
G0 X103.803 Y128.41
G1 F1500 X102.776 Y127.383 E3337.16895
G0 F9000 X102.776 Y127.41
G0 X92.375 Y127.707
G0 X92.375 Y127.731
G1 F1500 X92.267 Y127.622 E3337.171
G0 F9000 X92.292 Y127.623
G0 X92.591 Y117.222
G0 X92.616 Y117.223
G1 F1500 X91.589 Y116.196 E3337.19032
G1 F1500 E3330.69032
G0 F9000 X91.571 Y116.214
G0 X85.31 Y110
G0 X92.655 Y102.815
G0 X92.542 Y92.542
G0 X102.815 Y92.655
G0 X110 Y85.31
G0 X116.163 Y91.519
G0 X116.144 Y91.537
G1 F1500 E3337.19032
G1 X117.222 Y92.615 E3337.2106
G0 F9000 X117.222 Y92.59
G0 X127.623 Y92.293
G0 X127.623 Y92.268
G1 F1500 X127.731 Y92.376 E3337.21263
G0 F9000 X127.708 Y92.375
G0 X127.409 Y102.776
G0 X127.383 Y102.775
G1 F1500 X128.409 Y103.802 E3337.23195
G1 F1500 E3330.73195
G0 F9000 X128.428 Y103.784
G0 X132.797 Y108.19
G0 X131.219 Y109.807
G0 X131.429 Y110
G0 X125.056 Y116.236
G0 X125.153 Y125.152
G0 X116.329 Y125.05
G0 X110.142 Y131.385
G0 X110 Y131.246
;TYPE:WALL-OUTER
G1 F1500 E3337.23195
G1 X116.18 Y124.919 E3337.46728
G1 X125.024 Y125.023 E3337.70262
G1 X124.919 Y116.179 E3337.93796
G1 X131.246 Y110 E3338.17327
G1 X124.919 Y103.821 E3338.40858
G1 X125.024 Y94.977 E3338.64392
G1 X116.18 Y95.08 E3338.87926
G1 X110 Y88.754 E3339.11457
G1 X103.82 Y95.08 E3339.34989
G1 X94.976 Y94.977 E3339.58523
G1 X95.081 Y103.821 E3339.82056
G1 X88.754 Y110 E3340.05588
G1 X95.081 Y116.179 E3340.29119
G1 X95.013 Y121.849 E3340.44207
G1 X95.014 Y121.85 E3340.44211
G1 X94.976 Y125.023 E3340.52654
G1 X103.82 Y124.919 E3340.76188
G1 X110 Y131.246 E3340.99721
G0 F9000 X110 Y132.069
G1 F1500 X103.581 Y125.497 E3341.24165
G1 X97.531 Y125.569 E3341.40264
G1 X97.53 Y125.568 E3341.40268
G1 X94.394 Y125.605 E3341.48613
G1 X94.503 Y116.419 E3341.73057
G1 X87.93 Y110 E3341.97503
G1 X94.503 Y103.58 E3342.21951
G1 X94.394 Y94.395 E3342.46392
G1 X103.581 Y94.503 E3342.70838
G1 X110 Y87.93 E3342.95284
G1 X116.419 Y94.503 E3343.1973
G1 X125.605 Y94.395 E3343.44174
G1 X125.496 Y103.58 E3343.68615
G1 X132.07 Y110 E3343.93065
G1 X125.496 Y116.419 E3344.17513
G1 X125.605 Y125.605 E3344.41957
G1 X116.419 Y125.497 E3344.66401
G1 X110 Y132.069 E3344.90845
G0 F9000 X110.019 Y131.798
;TYPE:SKIN
G1 F1500 X108.383 Y130.162 E3344.93923
G0 F9000 X108.401 Y130.146
G0 X110 Y131.429
G0 X110.156 Y131.371
G0 X110.218 Y131.431
G1 F1500 X110.358 Y131.289 E3344.94222
G1 X113.992 Y127.569 E3345.02028
G1 X116.228 Y125.279 E3345.06832
G1 X117.012 Y125.215 E3345.08012
G1 X123.596 Y125.293 E3345.17895
G1 X125.313 Y125.313 E3345.20473
G1 X125.238 Y119.015 E3345.29926
G1 X125.207 Y116.439 E3345.33793
G1 X125.564 Y115.948 E3345.34704
G1 X129.428 Y112.175 E3345.42811
G1 X131.431 Y110.218 E3345.47014
G0 F9000 X131.654 Y110.158
G1 F1500 X125.095 Y103.599 E3345.59354
G0 F9000 X125.209 Y103.43
G1 F1500 X125.213 Y103.151 E3345.59772
G1 X125.289 Y96.722 E3345.69401
G1 X125.309 Y95.045 E3345.71912
G1 X124.953 Y94.689 E3345.72666
G1 X118.524 Y94.765 E3345.82295
G1 X116.566 Y94.787 E3345.85227
G0 F9000 X116.397 Y94.901
G1 F1500 X109.839 Y88.343 E3345.97566
G0 F9000 X109.979 Y88.2
G1 F1500 X111.645 Y89.866 E3346.007
G0 F9000 X111.627 Y89.882
G0 X110 Y88.571
G0 X109.843 Y88.63
G0 X109.78 Y88.567
G1 F1500 X109.64 Y88.709 E3346.01
G1 X105.867 Y92.573 E3346.09118
G1 X103.77 Y94.719 E3346.13629
G1 X102.985 Y94.783 E3346.14813
G1 X96.402 Y94.705 E3346.24709
G1 X94.684 Y94.684 E3346.27292
G1 X94.763 Y101.268 E3346.3719
G1 X94.79 Y103.558 E3346.40632
G1 X94.433 Y104.049 E3346.41545
G1 X90.569 Y107.823 E3346.49664
G1 X88.566 Y109.779 E3346.53873
G0 F9000 X88.344 Y109.84
G1 F1500 X94.903 Y116.399 E3346.66213
G0 F9000 X94.789 Y116.567
G1 F1500 X94.785 Y116.847 E3346.66634
G1 X94.712 Y122.996 E3346.75879
G1 X94.688 Y124.952 E3346.7882
G1 X95.044 Y125.308 E3346.79577
G1 X101.474 Y125.233 E3346.89245
G1 X103.431 Y125.21 E3346.92187
G0 F9000 X103.6 Y125.096
G1 F1500 X110.159 Y131.655 E3347.04528
G0 F9000 X110.142 Y131.638
G0 X103.638 Y125.36
G0 X94.875 Y125.399
G0 X94.875 Y125.422
G1 F1500 X94.575 Y125.122 E3347.05092
G0 F9000 X94.599 Y125.123
G0 X94.64 Y116.362
G0 X89.882 Y111.627
G0 X89.865 Y111.644
G1 F1500 X88.201 Y109.98 E3347.08223
G1 F1500 E3340.58223
G0 F9000 X88.217 Y109.998
G0 X94.944 Y103.764
G0 X94.847 Y94.848
G0 X103.763 Y94.943
G0 X110 Y88.571
G0 X116.237 Y94.943
G0 X125.123 Y94.601
G0 X125.123 Y94.576
G1 F1500 E3347.08223
G1 X125.423 Y94.876 E3347.08788
G0 F9000 X125.4 Y94.875
G0 X125.359 Y103.637
G0 X130.116 Y108.371
G0 X130.133 Y108.354
G1 F1500 X131.797 Y110.018 E3347.11918
G1 F1500 E3340.61918
G0 F9000 X131.783 Y110.001
G0 X125.02 Y116.221
G0 X123.117 Y116.243
G0 X122.826 Y121.064
G0 X122.846 Y122.846
G0 X115.414 Y123.07
G0 X110.142 Y128.125
G0 X110 Y127.986
;TYPE:WALL-OUTER
G1 F1500 E3347.11918
G1 X115.232 Y122.63 E3347.31841
G1 X119.935 Y122.686 E3347.44356
G1 X122.717 Y122.717 E3347.51758
G1 X122.629 Y115.231 E3347.71679
G1 X127.986 Y110 E3347.91601
G1 X122.629 Y104.769 E3348.11524
G1 X122.717 Y97.283 E3348.31444
G1 X115.232 Y97.37 E3348.51361
G1 X110 Y92.014 E3348.71284
G1 X104.768 Y97.37 E3348.91206
G1 X100.065 Y97.314 E3349.03721
G1 X97.283 Y97.283 E3349.11124
G1 X97.37 Y104.769 E3349.31044
G1 X92.015 Y110 E3349.50963
G1 X97.37 Y115.231 E3349.70881
G1 X97.314 Y119.935 E3349.83399
G1 X97.283 Y122.717 E3349.90801
G1 X104.768 Y122.63 E3350.10719
G1 X110 Y127.986 E3350.30641
G0 F9000 X110 Y128.809
G1 F1500 X104.529 Y123.207 E3350.51477
G1 X96.7 Y123.3 E3350.72309
G1 X96.792 Y115.471 E3350.93142
G1 X91.191 Y110 E3351.13976
G1 X96.792 Y104.529 E3351.34809
G1 X96.7 Y96.7 E3351.55642
G1 X104.529 Y96.792 E3351.76475
G1 X110 Y91.19 E3351.9731
G1 X115.471 Y96.792 E3352.18145
G1 X123.3 Y96.7 E3352.38978
G1 X123.208 Y104.529 E3352.59811
G1 X128.809 Y110 E3352.80644
G1 X123.208 Y115.471 E3353.01477
G1 X123.3 Y123.3 E3353.2231
G1 X120.724 Y123.268 E3353.29165
G1 X115.471 Y123.207 E3353.43143
G1 X110 Y128.809 E3353.63978
G0 F9000 X110.085 Y128.469
;TYPE:SKIN
G1 F1500 X104.424 Y122.808 E3353.74629
G0 F9000 X104.254 Y122.922
G1 F1500 X103.974 Y122.925 E3353.75054
G1 X97.545 Y123 E3353.84807
G1 X97.265 Y123.004 E3353.85231
G1 X96.994 Y122.733 E3353.85813
G1 X97.069 Y116.303 E3353.95567
G1 X97.076 Y115.744 E3353.96416
G0 F9000 X97.191 Y115.576
G1 F1500 X91.53 Y109.914 E3354.07068
G0 F9000 X91.751 Y109.853
G1 F1500 X91.895 Y109.714 E3354.07369
G1 X95.757 Y105.94 E3354.15493
G1 X97.045 Y104.682 E3354.18202
G1 X97.061 Y103 E3354.20733
G1 X96.99 Y96.99 E3354.29776
G1 X103.286 Y97.064 E3354.39249
G1 X104.682 Y97.045 E3354.4135
G1 X108.315 Y93.325 E3354.49173
G1 X109.853 Y91.751 E3354.52484
G0 F9000 X109.913 Y91.528
G1 F1500 X115.575 Y97.19 E3354.63137
G0 F9000 X115.743 Y97.076
G1 F1500 X116.023 Y97.073 E3354.63563
G1 X122.453 Y96.997 E3354.73344
G1 X122.732 Y96.994 E3354.73769
G1 X123.004 Y97.266 E3354.74354
G1 X122.928 Y103.695 E3354.84133
G1 X122.922 Y104.254 E3354.84984
G0 F9000 X122.807 Y104.422
G1 F1500 X128.469 Y110.084 E3354.95637
G0 F9000 X128.247 Y110.145
G1 F1500 X128.103 Y110.284 E3354.95938
G1 X124.384 Y113.919 E3355.03758
G1 X122.953 Y115.316 E3355.06765
G1 X122.937 Y116.997 E3355.09293
G1 X123.008 Y123.008 E3355.18332
G1 X116.71 Y122.933 E3355.27803
G1 X115.316 Y122.953 E3355.299
G1 X111.542 Y126.815 E3355.3802
G1 X110.145 Y128.247 E3355.41028
G0 F9000 X110.083 Y128.185
G0 X108.762 Y127.371
G0 X104.586 Y123.07
G0 X97.097 Y123.095
G0 X97.097 Y123.118
G1 F1500 X96.879 Y122.901 E3355.41437
G1 F1500 E3348.91437
G0 F9000 X96.904 Y122.902
G0 X97.233 Y115.288
G0 X91.832 Y110
G0 X97.233 Y104.712
G0 X97.154 Y97.154
G0 X104.711 Y97.233
G0 X110 Y91.831
G0 X115.289 Y97.233
G0 X122.902 Y96.905
G0 X122.902 Y96.88
G1 F1500 E3355.41437
G1 X123.119 Y97.097 E3355.41846
G1 F1500 E3348.91846
G0 F9000 X123.096 Y97.096
G0 X122.73 Y104.727
G0 X121.153 Y106.343
G0 X124.908 Y110
G0 X120.477 Y114.34
G0 X120.541 Y120.54
G0 X114.34 Y120.476
G0 X110.142 Y124.865
G0 X110 Y124.726
;TYPE:WALL-OUTER
G1 F1500 E3355.41846
G1 X114.283 Y120.34 E3355.58157
G1 X120.412 Y120.411 E3355.74466
G1 X120.341 Y114.283 E3355.90773
G1 X124.725 Y110 E3356.07081
G1 X120.341 Y105.717 E3356.23389
G1 X120.412 Y99.588 E3356.39698
G1 X114.283 Y99.659 E3356.56007
G1 X110 Y95.274 E3356.72317
G1 X105.717 Y99.659 E3356.88627
G1 X99.588 Y99.588 E3357.04936
G1 X99.659 Y105.717 E3357.21245
G1 X95.275 Y110 E3357.37553
G1 X99.659 Y114.283 E3357.53861
G1 X99.588 Y120.411 E3357.70167
G1 X105.717 Y120.34 E3357.86477
G1 X110 Y124.726 E3358.02788
G0 F9000 X110 Y125.548
G1 F1500 X106.298 Y121.759 E3358.16883
G1 X105.478 Y120.917 E3358.20011
G1 X99.006 Y120.994 E3358.37233
G1 X99.064 Y115.961 E3358.50625
G1 X99.082 Y114.522 E3358.54455
G1 X94.451 Y110 E3358.71677
G1 X98.314 Y106.226 E3358.86047
G1 X99.082 Y105.478 E3358.88899
G1 X99.022 Y100.508 E3359.02125
G1 X99.022 Y100.358 E3359.02524
G1 X99.006 Y99.006 E3359.06121
G1 X105.478 Y99.083 E3359.23343
G1 X106.389 Y98.148 E3359.26817
G1 X110 Y94.451 E3359.40568
G1 X114.522 Y99.083 E3359.57792
G1 X119.982 Y99.017 E3359.72321
G1 X120.995 Y99.006 E3359.75017
G1 X120.917 Y105.478 E3359.92239
G1 X125.549 Y110 E3360.09463
G1 X120.917 Y114.522 E3360.26687
G1 X120.995 Y120.994 E3360.43909
G1 X115.689 Y120.932 E3360.58028
G1 X114.522 Y120.917 E3360.61134
G1 X110 Y125.548 E3360.78356
G0 F9000 X110.011 Y125.285
;TYPE:SKIN
G1 F1500 X109.03 Y124.303 E3360.80203
G0 F9000 X109.047 Y124.287
G0 X110 Y124.909
G0 X110.149 Y124.858
G0 X110.131 Y124.839
G1 F1500 X110.291 Y124.999 E3360.80504
G0 F9000 X110.151 Y125.142
G1 F1500 X105.525 Y120.516 E3360.89208
G0 F9000 X105.356 Y120.629
G1 F1500 X105.077 Y120.633 E3360.89638
G1 X99.765 Y120.696 E3360.97837
G1 X99.392 Y120.605 E3360.98429
G1 X99.305 Y119.952 E3360.99446
G1 X99.367 Y114.641 E3361.07643
G0 F9000 X99.482 Y114.472
G1 F1500 X94.857 Y109.848 E3361.16344
G0 F9000 X95.079 Y109.787
G1 F1500 X95.223 Y109.648 E3361.16645
G1 X99.085 Y105.874 E3361.24779
G1 X99.353 Y105.576 E3361.25383
G1 X99.325 Y101.87 E3361.30965
G1 X99.296 Y99.296 E3361.34843
G1 X105.306 Y99.367 E3361.43896
G1 X105.734 Y99.229 E3361.44573
G1 X109.368 Y95.508 E3361.52408
G1 X109.787 Y95.079 E3361.53311
G0 F9000 X109.847 Y94.856
G1 F1500 X114.472 Y99.481 E3361.62013
G0 F9000 X114.641 Y99.367
G1 F1500 X114.92 Y99.364 E3361.62442
G1 X120.232 Y99.301 E3361.70606
G1 X120.606 Y99.392 E3361.71198
G1 X120.693 Y100.046 E3361.72212
G1 X120.63 Y105.357 E3361.80375
G0 F9000 X120.517 Y105.526
G1 F1500 X125.141 Y110.15 E3361.89075
G0 F9000 X125.284 Y110.01
G1 F1500 X124.291 Y109.018 E3361.90942
G0 F9000 X124.274 Y109.034
G0 X124.908 Y110
G0 X124.856 Y110.15
G0 X124.918 Y110.21
G1 F1500 X124.775 Y110.35 E3361.91243
G1 X120.912 Y114.124 E3361.99377
G1 X120.644 Y114.422 E3361.99981
G1 X120.675 Y118.412 E3362.0599
G1 X120.702 Y120.702 E3362.09439
G1 X114.691 Y120.63 E3362.18492
G1 X114.263 Y120.768 E3362.1917
G1 X110.49 Y124.633 E3362.27304
G1 X110.35 Y124.775 E3362.27604
G0 F9000 X110.414 Y124.839
G0 X110 Y124.909
G0 X105.535 Y120.78
G0 X99.317 Y120.79
G0 X99.317 Y120.813
G1 F1500 X99.185 Y120.681 E3362.27853
G0 F9000 X99.209 Y120.682
G0 X99.218 Y114.465
G0 X95.738 Y110.978
G0 X95.721 Y110.994
G1 F1500 X94.714 Y109.988 E3362.29747
G0 F9000 X94.73 Y110.006
G0 X99.525 Y105.21
G0 X99.459 Y99.459
G0 X105.211 Y99.524
G0 X110.005 Y94.732
G0 X109.987 Y94.714
G1 F1500 X110.981 Y95.708 E3362.31617
G0 F9000 X110.964 Y95.724
G0 X114.465 Y99.22
G0 X120.681 Y99.21
G0 X120.681 Y99.185
G1 F1500 X120.814 Y99.318 E3362.31867
G1 F1500 E3355.81867
;MESH:NONMESH
G0 F300 X120.814 Y99.318 Z17
G0 F9000 X120.792 Y99.317
G0 X120.477 Y105.66
G0 X124.908 Y110
G0 X120.477 Y114.34
G0 X120.541 Y120.54
G0 X115.691 Y120.813
G0 X115.679 Y121.797
G0 X124.766 Y144.658
G0 X124.756 Y145.623
G0 X110.185 Y160.685
G0 X110 Y160.503
;TIME_ELAPSED:45427.135917
;LAYER:105
;TYPE:WALL-OUTER
;MESH:Fidget_Star_8-Point.stl
G1 F1500 E3362.31867
G1 X124.689 Y145.461 E3362.87809
G1 X138.54 Y145.627 E3363.24667
G1 X145.71 Y145.71 E3363.43746
G1 X145.461 Y124.689 E3363.99683
G1 X160.503 Y110 E3364.55625
G1 X145.461 Y95.312 E3365.11565
G1 X145.71 Y74.29 E3365.67505
G1 X124.689 Y74.539 E3366.23442
G1 X110 Y59.497 E3366.79384
G1 X95.311 Y74.539 E3367.35326
G1 X81.459 Y74.373 E3367.72186
G1 X74.289 Y74.29 E3367.91265
G1 X74.538 Y95.312 E3368.47205
G1 X59.497 Y110 E3369.03143
G1 X74.538 Y124.689 E3369.59083
G1 X74.289 Y145.71 E3370.1502
G1 X95.311 Y145.461 E3370.7096
G1 X110 Y160.503 E3371.26902
G0 F9000 X110 Y161.323
G1 F1500 X95.072 Y146.038 E3371.83751
G1 X73.709 Y146.291 E3372.40598
G1 X73.963 Y124.927 E3372.97447
G1 X58.676 Y110 E3373.54298
G1 X73.963 Y95.073 E3374.11149
G1 X73.709 Y73.709 E3374.67999
G1 X95.072 Y73.963 E3375.24846
G1 X110 Y58.677 E3375.81697
G1 X124.927 Y73.963 E3376.38546
G1 X146.291 Y73.709 E3376.95395
G1 X146.037 Y95.073 E3377.52245
G1 X161.324 Y110 E3378.09096
G1 X146.037 Y124.927 E3378.65947
G1 X146.291 Y146.291 E3379.22797
G1 X124.927 Y146.038 E3379.79646
G1 X110 Y161.323 E3380.36493
G0 F9000 X109.946 Y161.016
;TYPE:SKIN
G1 F1500 X114.496 Y156.466 E3380.45054
G0 F9000 X114.48 Y156.45
G0 X113.017 Y157.698
G0 X112.999 Y157.68
G1 F1500 X125.041 Y145.639 E3380.6771
G0 F9000 X125.209 Y145.753
G1 F1500 X125.488 Y145.756 E3380.68123
G1 X131.917 Y145.833 E3380.7765
G1 X138.346 Y145.909 E3380.87177
G1 X144.776 Y145.985 E3380.96706
G1 X145.615 Y145.995 E3380.97949
G1 X145.995 Y145.615 E3380.98746
G1 X145.918 Y139.185 E3381.08274
G1 X145.846 Y133.036 E3381.17386
G1 X145.769 Y126.607 E3381.26913
G1 X145.753 Y125.209 E3381.28985
G0 F9000 X145.639 Y125.04
G1 F1500 X157.681 Y112.999 E3381.51641
G0 F9000 X157.698 Y113.018
G0 X156.427 Y114.503
G0 X156.442 Y114.52
G1 F1500 X161.018 Y109.945 E3381.60249
G0 F9000 X160.794 Y109.885
G1 F1500 X160.651 Y109.744 E3381.60548
G1 X156.93 Y106.111 E3381.68267
G1 X153.067 Y102.339 E3381.76282
G1 X149.202 Y98.566 E3381.843
G1 X145.911 Y95.352 E3381.91128
G1 X145.751 Y94.947 E3381.91774
G1 X145.825 Y88.65 E3382.01122
G1 X145.9 Y82.353 E3382.10471
G1 X145.975 Y76.055 E3382.1982
G1 X145.999 Y74.052 E3382.22794
G1 X144.907 Y74.012 E3382.24416
G1 X138.324 Y74.09 E3382.34188
G1 X131.74 Y74.168 E3382.43962
G1 X125.156 Y74.247 E3382.53737
G1 X124.697 Y74.139 E3382.54436
G1 X120.924 Y70.276 E3382.62452
G1 X117.151 Y66.412 E3382.70469
G1 X113.379 Y62.548 E3382.78485
G1 X110.164 Y59.257 E3382.85314
G0 F9000 X110.104 Y59.035
G1 F1500 X101.121 Y68.018 E3383.02215
G0 F9000 X101.139 Y68.036
G0 X102.631 Y66.758
G0 X102.647 Y66.774
G1 F1500 X95.061 Y74.361 E3383.16489
G0 F9000 X94.892 Y74.247
G1 F1500 X94.612 Y74.243 E3383.16906
G1 X88.184 Y74.167 E3383.26488
G1 X81.755 Y74.09 E3383.36072
G1 X75.326 Y74.014 E3383.45655
G1 X74.487 Y74.004 E3383.46905
G1 X74.104 Y74.104 E3383.47495
G1 X74.007 Y74.766 E3383.48493
G1 X74.083 Y81.195 E3383.58076
G1 X74.16 Y87.624 E3383.67659
G1 X74.236 Y94.053 E3383.77242
G1 X74.246 Y94.892 E3383.78493
G0 F9000 X74.36 Y95.062
G1 F1500 X66.774 Y102.648 E3383.92766
G0 F9000 X66.758 Y102.631
G0 X68.023 Y101.152
G0 X68.005 Y101.133
G1 F1500 X59.034 Y110.105 E3384.09646
G0 F9000 X59.256 Y110.165
G1 F1500 X59.399 Y110.305 E3384.09943
G1 X63.12 Y113.938 E3384.1767
G1 X66.984 Y117.711 E3384.25695
G1 X70.848 Y121.484 E3384.3372
G1 X74.139 Y124.698 E3384.40555
G1 X74.246 Y125.156 E3384.41254
G1 X74.171 Y131.454 E3384.50613
G1 X74.093 Y138.038 E3384.60397
G1 X74.014 Y144.621 E3384.7018
G1 X74.051 Y145.999 E3384.72228
G1 X80.635 Y145.921 E3384.82012
G1 X87.218 Y145.842 E3384.91795
G1 X93.801 Y145.764 E3385.01577
G1 X95.205 Y145.775 E3385.03664
G1 X98.565 Y149.203 E3385.10796
G1 X102.339 Y153.067 E3385.18822
G1 X106.112 Y156.931 E3385.26847
G1 X109.885 Y160.794 E3385.34871
G1 F1500 E3378.84871
G0 F9000 X109.824 Y160.857
G0 X124.87 Y145.902
G0 X145.785 Y146.087
G0 X145.946 Y145.946
G1 F1500 E3385.34871
G1 X146.087 Y146.088 E3385.35568
G1 F1500 E3378.85568
G0 F9000 X146.065 Y146.09
G0 X124.746 Y145.598
G0 X110 Y160.686
G0 X95.254 Y145.598
G0 X74.16 Y145.839
G0 X74.401 Y124.746
G0 X59.314 Y110
G0 X74.401 Y95.255
G0 X73.912 Y74.038
G0 X73.888 Y74.038
G1 F1500 E3385.35568
G1 X74.039 Y73.887 E3385.35852
G1 F1500 E3378.85852
G0 F9000 X74.038 Y73.911
G0 X74.437 Y95.27
G0 X76.026 Y96.897
G0 X62.569 Y110
G0 X76.687 Y123.799
G0 X76.462 Y143.538
G0 X96.202 Y143.314
G0 X110 Y157.432
G0 X110.142 Y157.388
G0 X110 Y157.249
;TYPE:WALL-OUTER
G1 F1500 E3385.35852
G1 X114.695 Y152.443 E3385.5373
G1 X123.741 Y143.177 E3385.88186
G1 X143.408 Y143.409 E3386.40519
G1 X143.176 Y123.742 E3386.92853
G1 X157.248 Y110 E3387.45188
G1 X152.442 Y105.305 E3387.63065
G1 X143.176 Y96.259 E3387.97522
G1 X143.408 Y76.591 E3388.49858
G1 X123.741 Y76.824 E3389.02192
G1 X110 Y62.751 E3389.54527
G1 X96.259 Y76.824 E3390.06862
G1 X76.591 Y76.591 E3390.59199
G1 X76.824 Y96.259 E3391.11535
G1 X67.559 Y105.304 E3391.45987
G1 X62.752 Y110 E3391.63868
G1 X76.824 Y123.742 E3392.16203
G1 X76.669 Y136.69 E3392.50658
G1 X76.591 Y143.409 E3392.68537
G1 X96.259 Y143.177 E3393.20874
G1 X105.304 Y152.442 E3393.55326
G1 X110 Y157.249 E3393.73207
G0 F9000 X110 Y158.069
G1 F1500 X96.019 Y143.752 E3394.26453
G1 X76.01 Y143.99 E3394.79697
G1 X76.248 Y123.981 E3395.32941
G1 X61.931 Y110 E3395.86186
G1 X76.248 Y96.019 E3396.39432
G1 X76.01 Y76.01 E3396.92676
G1 X96.019 Y76.248 E3397.4592
G1 X110 Y61.931 E3397.99166
G1 X123.98 Y76.248 E3398.5241
G1 X143.989 Y76.01 E3399.05654
G1 X143.751 Y96.019 E3399.58898
G1 X158.069 Y110 E3400.12145
G1 X143.751 Y123.981 E3400.65393
G1 X143.989 Y143.99 E3401.18637
G1 X123.98 Y143.752 E3401.71881
G1 X110 Y158.069 E3402.25125
G0 F9000 X109.878 Y157.691
;TYPE:SKIN
G1 F1500 X120.312 Y147.257 E3402.44756
G0 F9000 X120.295 Y147.24
G0 X118.842 Y148.481
G0 X118.823 Y148.462
G1 F1500 X123.933 Y143.353 E3402.5437
G0 F9000 X124.102 Y143.466
G1 F1500 X124.381 Y143.469 E3402.54785
G1 X130.811 Y143.545 E3402.64359
G1 X137.24 Y143.621 E3402.73932
G1 X143.389 Y143.694 E3402.83088
G1 X143.695 Y143.39 E3402.8373
G1 X143.617 Y136.961 E3402.93303
G1 X143.541 Y130.532 E3403.02875
G1 X143.465 Y124.103 E3403.12448
G0 F9000 X143.353 Y123.933
G1 F1500 X148.528 Y118.757 E3403.22186
G0 F9000 X148.546 Y118.777
G0 X147.239 Y120.296
G0 X147.255 Y120.313
G1 F1500 X157.691 Y109.877 E3403.41821
G0 F9000 X157.469 Y109.816
G1 F1500 X157.326 Y109.676 E3403.42118
G1 X153.462 Y105.903 E3403.50141
G1 X149.598 Y102.13 E3403.58163
G1 X145.878 Y98.497 E3403.65888
G1 X143.587 Y96.261 E3403.70644
G1 X143.466 Y95.818 E3403.71326
G1 X143.54 Y89.521 E3403.80681
G1 X143.618 Y82.938 E3403.90461
G1 X143.693 Y76.64 E3403.99818
G1 X143.697 Y76.354 E3404.00243
G1 X142.892 Y76.309 E3404.0144
G1 X136.309 Y76.387 E3404.1122
G1 X129.725 Y76.466 E3404.21002
G1 X124 Y76.534 E3404.29507
G1 X123.509 Y76.177 E3404.30409
G1 X119.736 Y72.313 E3404.38432
G1 X115.963 Y68.449 E3404.46455
G1 X112.19 Y64.585 E3404.54478
G1 X110.094 Y62.439 E3404.58934
G0 F9000 X110.033 Y62.217
G1 F1500 X107.112 Y65.138 E3404.6443
G0 F9000 X107.13 Y65.156
G0 X108.577 Y63.924
G0 X108.593 Y63.94
G1 F1500 X95.889 Y76.644 E3404.88332
G0 F9000 X95.72 Y76.53
G1 F1500 X95.44 Y76.527 E3404.8875
G1 X89.011 Y76.451 E3404.98344
G1 X82.582 Y76.374 E3405.07939
G1 X76.712 Y76.304 E3405.16699
G1 X76.367 Y76.366 E3405.17222
G1 X76.311 Y77.271 E3405.18575
G1 X76.387 Y83.7 E3405.2817
G1 X76.464 Y90.129 E3405.37764
G1 X76.53 Y95.719 E3405.46107
G0 F9000 X76.644 Y95.89
G1 F1500 X63.92 Y108.613 E3405.70046
G0 F9000 X63.905 Y108.596
G0 X65.156 Y107.13
G0 X65.139 Y107.111
G1 F1500 X62.216 Y110.034 E3405.75545
G0 F9000 X62.438 Y110.094
G1 F1500 X62.582 Y110.234 E3405.75843
G1 X66.445 Y114.007 E3405.83853
G1 X70.309 Y117.779 E3405.91863
G1 X74.173 Y121.552 E3405.99874
G1 X76.462 Y123.788 E3406.0462
G1 X76.53 Y124.287 E3406.05367
G1 X76.456 Y130.584 E3406.14709
G1 X76.377 Y137.168 E3406.24476
G1 X76.302 Y143.465 E3406.33817
G1 X76.352 Y143.698 E3406.3417
G1 X82.936 Y143.619 E3406.43938
G1 X89.519 Y143.542 E3406.53703
G1 X95.816 Y143.467 E3406.63044
G1 X96.261 Y143.588 E3406.63728
G1 X99.893 Y147.309 E3406.71441
G1 X103.667 Y151.173 E3406.79453
G1 X107.44 Y155.036 E3406.87463
G1 X109.816 Y157.469 E3406.92508
G1 F1500 E3400.42508
G0 F9000 X109.877 Y157.408
G0 X110 Y157.432
G0 X123.923 Y143.615
G0 X143.56 Y143.787
G0 X143.559 Y143.808
G1 F1500 E3406.92508
G1 X143.807 Y143.56 E3406.92974
G1 F1500 E3400.42974
G0 F9000 X143.785 Y143.56
G0 X143.313 Y123.799
G0 X157.431 Y110
G0 X143.313 Y96.202
G0 X143.537 Y76.462
G0 X123.798 Y76.687
G0 X110 Y62.568
G0 X96.17 Y76.624
G0 X96.169 Y76.647
G1 F1500 E3406.92974
G1 X96.888 Y75.928 E3406.94327
G0 F9000 X96.871 Y75.911
G0 X96.076 Y76.385
G0 X76.262 Y76.211
G0 X76.263 Y76.188
G1 F1500 X76.189 Y76.262 E3406.94466
G0 F9000 X76.212 Y76.262
G0 X76.623 Y96.17
G0 X76.646 Y96.17
G1 F1500 X75.934 Y96.882 E3406.95806
G1 F1500 E3400.45806
G0 F9000 X75.919 Y96.864
G0 X67.489 Y105.232
G0 X69.079 Y106.859
G0 X65.823 Y110
G0 X78.972 Y122.852
G0 X78.763 Y141.236
G0 X97.148 Y141.028
G0 X110 Y154.177
G0 X110.142 Y154.133
G0 X110 Y153.994
;TYPE:WALL-OUTER
G1 F1500 E3406.95806
G1 X122.795 Y140.891 E3407.44536
G1 X141.107 Y141.107 E3407.93264
G1 X140.89 Y122.795 E3408.41992
G1 X153.994 Y110 E3408.90724
G1 X140.89 Y97.206 E3409.39454
G1 X141.107 Y78.893 E3409.88185
G1 X122.795 Y79.109 E3410.36913
G1 X110 Y66.006 E3410.85643
G1 X97.205 Y79.109 E3411.34373
G1 X78.892 Y78.893 E3411.83104
G1 X79.109 Y97.206 E3412.31835
G1 X66.006 Y110 E3412.80563
G1 X79.109 Y122.795 E3413.29293
G1 X78.892 Y141.107 E3413.78021
G1 X97.205 Y140.891 E3414.26752
G1 X110 Y153.994 E3414.75482
G0 F9000 X110 Y154.813
G1 F1500 X96.966 Y141.467 E3415.25119
G1 X78.311 Y141.688 E3415.74759
G1 X78.534 Y123.034 E3416.24398
G1 X65.186 Y110 E3416.74038
G1 X78.534 Y96.966 E3417.23679
G1 X78.311 Y78.312 E3417.73317
G1 X96.966 Y78.534 E3418.22958
G1 X110 Y65.187 E3418.72597
G1 X123.033 Y78.534 E3419.22234
G1 X141.688 Y78.312 E3419.71875
G1 X141.466 Y96.966 E3420.21513
G1 X154.814 Y110 E3420.71154
G1 X141.466 Y123.034 E3421.20794
G1 X141.688 Y141.688 E3421.70433
G1 X123.033 Y141.467 E3422.20074
G1 X110 Y154.813 E3422.69709
G0 F9000 X109.948 Y154.509
;TYPE:SKIN
G1 F1500 X114.299 Y150.158 E3422.77895
G0 F9000 X114.283 Y150.142
G0 X112.838 Y151.372
G0 X112.82 Y151.354
G1 F1500 X123.105 Y141.069 E3422.97246
G0 F9000 X123.275 Y141.182
G1 F1500 X123.554 Y141.185 E3422.97662
G1 X129.984 Y141.261 E3423.07253
G1 X136.413 Y141.338 E3423.16843
G1 X141.165 Y141.394 E3423.23931
G1 X141.394 Y141.164 E3423.24415
G1 X141.317 Y134.735 E3423.34005
G1 X141.241 Y128.307 E3423.43593
G1 X141.181 Y123.276 E3423.51097
G0 F9000 X141.068 Y123.106
G1 F1500 X151.368 Y112.806 E3423.70477
G0 F9000 X151.385 Y112.825
G0 X150.101 Y114.323
G0 X150.117 Y114.34
G1 F1500 X154.509 Y109.948 E3423.7874
G0 F9000 X154.287 Y109.887
G1 F1500 X154.144 Y109.747 E3423.79037
G1 X150.28 Y105.974 E3423.87049
G1 X146.416 Y102.201 E3423.95062
G1 X142.695 Y98.568 E3424.02777
G1 X141.264 Y97.171 E3424.05744
G1 X141.181 Y96.688 E3424.06472
G1 X141.259 Y90.104 E3424.1624
G1 X141.338 Y83.521 E3424.26008
G1 X141.396 Y78.655 E3424.33228
G1 X140.304 Y78.615 E3424.34849
G1 X133.721 Y78.693 E3424.44616
G1 X127.137 Y78.771 E3424.54385
G1 X123.13 Y78.818 E3424.60331
G1 X122.739 Y78.643 E3424.60966
G1 X119.106 Y74.923 E3424.68681
G1 X115.473 Y71.202 E3424.76396
G1 X111.84 Y67.481 E3424.84112
G1 X110.163 Y65.764 E3424.87673
G0 F9000 X110.102 Y65.543
G1 F1500 X101.298 Y74.346 E3425.04236
G0 F9000 X101.317 Y74.365
G0 X102.814 Y73.08
G0 X102.831 Y73.097
G1 F1500 X96.996 Y78.931 E3425.15214
G0 F9000 X96.826 Y78.818
G1 F1500 X96.547 Y78.815 E3425.15628
G1 X90.118 Y78.738 E3425.25173
G1 X83.689 Y78.661 E3425.34718
G1 X78.937 Y78.605 E3425.41773
G1 X78.605 Y78.937 E3425.4247
G1 X78.681 Y85.366 E3425.52015
G1 X78.758 Y91.795 E3425.61559
G1 X78.818 Y96.826 E3425.69029
G0 F9000 X78.93 Y96.997
G1 F1500 X73.062 Y102.865 E3425.80069
G0 F9000 X73.046 Y102.847
G0 X74.384 Y101.298
G0 X74.366 Y101.278
G1 F1500 X65.542 Y110.102 E3425.96671
G0 F9000 X65.764 Y110.163
G1 F1500 X65.907 Y110.303 E3425.96968
G1 X69.628 Y113.936 E3426.04686
G1 X73.491 Y117.709 E3426.12699
G1 X77.355 Y121.482 E3426.20713
G1 X78.786 Y122.88 E3426.23681
G1 X78.801 Y124.561 E3426.26176
G1 X78.723 Y131.145 E3426.35947
G1 X78.644 Y137.729 E3426.45718
G1 X78.603 Y141.164 E3426.50816
G1 X78.655 Y141.396 E3426.51169
G1 X85.238 Y141.318 E3426.60938
G1 X91.821 Y141.24 E3426.70708
G1 X96.973 Y141.179 E3426.78353
G1 X97.589 Y141.694 E3426.79545
G1 X101.362 Y145.558 E3426.87559
G1 X105.135 Y149.421 E3426.95572
G1 X108.908 Y153.285 E3427.03586
G1 X109.887 Y154.287 E3427.05665
G1 F1500 E3420.55665
G0 F9000 X110 Y154.237
G0 X122.976 Y141.33
G0 X141.335 Y141.485
G0 X141.334 Y141.508
G1 F1500 E3427.05665
G1 X141.507 Y141.335 E3427.05991
G1 F1500 E3420.55991
G0 F9000 X141.484 Y141.335
G0 X122.852 Y141.028
G0 X110 Y154.177
G0 X97.148 Y141.028
G0 X78.763 Y141.236
G0 X78.972 Y122.852
G0 X65.823 Y110
G0 X78.972 Y97.149
G0 X78.516 Y78.768
G0 X78.492 Y78.768
G1 F1500 E3427.05991
G1 X78.768 Y78.491 E3427.06511
G1 F1500 E3420.56511
G0 F9000 X78.767 Y78.516
G0 X79.008 Y97.164
G0 X80.596 Y98.789
G0 X69.078 Y110
G0 X81.257 Y121.905
G0 X81.065 Y138.935
G0 X98.094 Y138.742
G0 X110 Y150.922
G0 X110.142 Y150.878
G0 X110 Y150.739
;TYPE:WALL-OUTER
G1 F1500 E3427.06511
G1 X121.849 Y138.605 E3427.51637
G1 X138.806 Y138.806 E3427.9676
G1 X138.606 Y121.848 E3428.41885
G1 X150.739 Y110 E3428.87008
G1 X138.606 Y98.151 E3429.32133
G1 X138.806 Y81.193 E3429.77258
G1 X121.849 Y81.394 E3430.22381
G1 X110 Y69.261 E3430.67505
G1 X98.151 Y81.394 E3431.1263
G1 X86.925 Y81.26 E3431.42502
G1 X86.924 Y81.261 E3431.42506
G1 X81.194 Y81.193 E3431.57754
G1 X81.394 Y98.151 E3432.02879
G1 X69.261 Y110 E3432.48004
G1 X81.394 Y121.848 E3432.93127
G1 X81.194 Y138.806 E3433.38252
G1 X98.151 Y138.605 E3433.83374
G1 X110 Y150.739 E3434.28501
G0 F9000 X110 Y151.559
G1 F1500 X97.912 Y139.181 E3434.74536
G1 X80.613 Y139.387 E3435.20569
G1 X80.818 Y122.087 E3435.66604
G1 X68.44 Y110 E3436.12638
G1 X80.818 Y97.912 E3436.58673
G1 X80.613 Y80.613 E3437.04706
G1 X97.912 Y80.819 E3437.50739
G1 X110 Y68.44 E3437.96776
G1 X122.088 Y80.819 E3438.42813
G1 X139.387 Y80.613 E3438.88846
G1 X139.181 Y97.912 E3439.34878
G1 X151.56 Y110 E3439.80916
G1 X139.181 Y122.087 E3440.26951
G1 X139.387 Y139.387 E3440.72987
G1 X122.088 Y139.181 E3441.19019
G1 X110 Y151.559 E3441.65055
G0 F9000 X109.88 Y151.183
;TYPE:SKIN
G1 F1500 X120.18 Y140.883 E3441.84434
G0 F9000 X120.163 Y140.866
G0 X118.651 Y142.165
G0 X118.633 Y142.147
G1 F1500 X121.999 Y138.781 E3441.90767
G0 F9000 X122.168 Y138.894
G1 F1500 X122.448 Y138.897 E3441.91186
G1 X128.876 Y138.974 E3442.00794
G1 X135.305 Y139.05 E3442.10404
G1 X138.66 Y139.091 E3442.1542
G1 X139.016 Y139.017 E3442.15963
G1 X139.084 Y138.1 E3442.17337
G1 X139.008 Y131.671 E3442.26948
G1 X138.931 Y125.242 E3442.36558
G1 X138.894 Y122.168 E3442.41153
G0 F9000 X138.783 Y121.997
G1 F1500 X142.149 Y118.631 E3442.47486
G0 F9000 X142.166 Y118.65
G0 X140.909 Y120.121
G0 X140.924 Y120.138
G1 F1500 X151.184 Y109.879 E3442.66789
G0 F9000 X150.962 Y109.818
G1 F1500 X150.818 Y109.678 E3442.67087
G1 X146.955 Y105.905 E3442.75093
G1 X143.234 Y102.272 E3442.82804
G1 X139.371 Y98.499 E3442.90811
G1 X138.942 Y98.079 E3442.91701
G1 X138.905 Y96.985 E3442.93324
G1 X138.982 Y90.401 E3443.03088
G1 X139.061 Y83.818 E3443.12849
G1 X139.095 Y80.956 E3443.17093
G1 X138.004 Y80.915 E3443.18712
G1 X131.42 Y80.993 E3443.28475
G1 X124.837 Y81.071 E3443.38237
G1 X121.989 Y81.09 E3443.4246
G1 X120.293 Y79.392 E3443.46019
G1 X116.66 Y75.671 E3443.5373
G1 X112.886 Y71.808 E3443.61738
G1 X110.092 Y68.946 E3443.67668
G0 F9000 X110.031 Y68.725
G1 F1500 X107.231 Y71.525 E3443.72936
G0 F9000 X107.249 Y71.543
G0 X108.749 Y70.257
G0 X108.765 Y70.273
G1 F1500 X97.823 Y81.215 E3443.93523
G0 F9000 X97.654 Y81.101
G1 F1500 X97.374 Y81.098 E3443.93941
G1 X90.946 Y81.022 E3444.03522
G1 X84.516 Y80.945 E3444.13107
G1 X81.162 Y80.906 E3444.18106
G1 X80.905 Y81.162 E3444.18647
G1 X80.981 Y87.591 E3444.2823
G1 X81.055 Y93.741 E3444.37397
G1 X81.101 Y97.654 E3444.43229
G0 F9000 X81.214 Y97.824
G1 F1500 X70.272 Y108.766 E3444.63817
G0 F9000 X70.257 Y108.749
G0 X69.018 Y110
G0 X68.946 Y110.092
G1 F1500 X69.089 Y110.232 E3444.64114
G1 X72.953 Y114.005 E3444.7215
G1 X76.817 Y117.777 E3444.80185
G1 X80.823 Y121.69 E3444.88517
G1 X81.091 Y121.989 E3444.89115
G1 X81.051 Y126.554 E3444.95908
G1 X80.973 Y133.137 E3445.05703
G1 X80.906 Y138.862 E3445.14223
G1 X80.956 Y139.095 E3445.14577
G1 X87.253 Y139.02 E3445.23948
G1 X93.837 Y138.942 E3445.33745
G1 X97.844 Y138.894 E3445.39708
G1 X98.219 Y139.084 E3445.40333
G1 X101.992 Y142.948 E3445.48369
G1 X105.626 Y146.668 E3445.56107
G1 X109.398 Y150.532 E3445.64142
G1 X109.818 Y150.961 E3445.65035
G1 F1500 E3439.15035
G0 F9000 X109.757 Y151.025
G0 X110.75 Y150.623
G0 X122.031 Y139.044
G0 X139.11 Y139.185
G0 X139.109 Y139.208
G1 F1500 E3445.65035
G1 X139.207 Y139.109 E3445.6522
G1 F1500 E3439.1522
G0 F9000 X139.184 Y139.109
G0 X121.906 Y138.742
G0 X110 Y150.922
G0 X98.094 Y138.742
G0 X81.065 Y138.935
G0 X81.257 Y121.905
G0 X69.078 Y110
G0 X71.542 Y107.249
G0 X71.525 Y107.23
G1 F1500 E3445.6522
G1 X68.724 Y110.032 E3445.70491
G1 F1500 E3439.20491
G0 F9000 X68.741 Y110.015
G0 X80.955 Y97.969
G0 X80.817 Y80.992
G0 X80.793 Y80.992
G1 F1500 E3445.70491
G1 X80.993 Y80.792 E3445.70868
G1 F1500 E3439.20868
G0 F9000 X80.992 Y80.816
G0 X81.293 Y98.109
G0 X82.882 Y99.735
G0 X72.333 Y110
G0 X83.542 Y120.958
G0 X83.366 Y136.633
G0 X99.041 Y136.457
G0 X110 Y147.667
G0 X110.142 Y147.623
G0 X110 Y147.484
;TYPE:WALL-OUTER
G1 F1500 E3445.70868
G1 X120.902 Y136.32 E3446.12387
G1 X136.505 Y136.504 E3446.53907
G1 X136.32 Y120.901 E3446.95426
G1 X147.484 Y110 E3447.36944
G1 X136.32 Y99.098 E3447.78464
G1 X136.505 Y83.495 E3448.19983
G1 X120.902 Y83.68 E3448.61503
G1 X110 Y72.516 E3449.03022
G1 X99.098 Y83.68 E3449.44542
G1 X88.775 Y83.556 E3449.72011
G1 X88.774 Y83.557 E3449.72015
G1 X83.495 Y83.495 E3449.86063
G1 X83.679 Y99.098 E3450.27582
G1 X72.516 Y110 E3450.691
G1 X83.679 Y120.901 E3451.10616
G1 X83.495 Y136.504 E3451.52135
G1 X99.098 Y136.32 E3451.93655
G1 X110 Y147.484 E3452.35174
G0 F9000 X110 Y148.304
G1 F1500 X98.859 Y136.896 E3452.77603
G1 X82.914 Y137.085 E3453.20032
G1 X83.104 Y121.141 E3453.62459
G1 X71.695 Y110 E3454.0489
G1 X83.104 Y98.858 E3454.47322
G1 X82.914 Y82.914 E3454.89749
G1 X98.859 Y83.103 E3455.32178
G1 X110 Y71.695 E3455.74607
G1 X121.141 Y83.103 E3456.17035
G1 X137.086 Y82.914 E3456.59465
G1 X136.896 Y98.858 E3457.01892
G1 X148.305 Y110 E3457.44324
G1 X136.896 Y121.141 E3457.86754
G1 X137.086 Y137.085 E3458.29181
G1 X121.141 Y136.896 E3458.71611
G1 X110 Y148.304 E3459.14039
G0 F9000 X109.95 Y148.001
;TYPE:SKIN
G1 F1500 X114.18 Y143.772 E3459.21997
G0 F9000 X114.163 Y143.755
G0 X112.659 Y145.046
G0 X112.641 Y145.028
G1 F1500 X121.172 Y136.497 E3459.38048
G0 F9000 X121.341 Y136.61
G1 F1500 X121.62 Y136.613 E3459.38462
G1 X128.049 Y136.69 E3459.48015
G1 X134.478 Y136.766 E3459.57567
G1 X136.435 Y136.79 E3459.60475
G1 X136.79 Y136.435 E3459.61221
G1 X136.713 Y130.006 E3459.70773
G1 X136.637 Y123.577 E3459.80325
G1 X136.611 Y121.341 E3459.83647
G0 F9000 X136.498 Y121.171
G1 F1500 X145.029 Y112.64 E3459.99698
G0 F9000 X145.046 Y112.659
G0 X143.734 Y114.185
G0 X143.749 Y114.202
G1 F1500 X148.003 Y109.949 E3460.07701
G0 F9000 X147.779 Y109.889
G1 F1500 X147.636 Y109.749 E3460.07999
G1 X143.773 Y105.976 E3460.16046
G1 X139.909 Y102.202 E3460.24094
G1 X136.762 Y99.128 E3460.30649
G1 X136.61 Y98.714 E3460.31306
G1 X136.688 Y92.13 E3460.41118
G1 X136.766 Y85.547 E3460.50928
G1 X136.794 Y83.257 E3460.5434
G1 X135.702 Y83.217 E3460.55969
G1 X129.119 Y83.295 E3460.65779
G1 X122.535 Y83.373 E3460.7559
G1 X121.104 Y83.39 E3460.77723
G1 X120.362 Y82.718 E3460.79214
G1 X116.729 Y78.997 E3460.86963
G1 X112.956 Y75.133 E3460.95011
G1 X110.161 Y72.272 E3461.00971
G0 F9000 X110.1 Y72.049
G1 F1500 X101.417 Y80.733 E3461.17308
G0 F9000 X101.435 Y80.751
G0 X102.999 Y79.4
G0 X103.015 Y79.417
G1 F1500 X98.929 Y83.503 E3461.24996
G0 F9000 X98.761 Y83.389
G1 F1500 X98.482 Y83.385 E3461.25415
G1 X92.053 Y83.308 E3461.35069
G1 X85.623 Y83.232 E3461.44725
G1 X83.667 Y83.209 E3461.47662
G1 X83.297 Y83.296 E3461.48232
G1 X83.212 Y83.946 E3461.49217
G1 X83.289 Y90.375 E3461.58871
G1 X83.365 Y96.805 E3461.68526
G1 X83.388 Y98.761 E3461.71463
G0 F9000 X83.501 Y98.932
G1 F1500 X79.454 Y102.978 E3461.79077
G0 F9000 X79.438 Y102.961
G0 X80.799 Y101.388
G0 X80.781 Y101.369
G1 F1500 X72.049 Y110.101 E3461.95506
G0 F9000 X72.271 Y110.16
G1 F1500 X72.414 Y110.3 E3461.95803
G1 X76.135 Y113.933 E3462.03539
G1 X79.999 Y117.707 E3462.11574
G1 X83.29 Y120.921 E3462.18417
G1 X83.386 Y121.39 E3462.19129
G1 X83.308 Y127.974 E3462.28924
G1 X83.234 Y134.271 E3462.38292
G1 X83.206 Y136.561 E3462.41699
G1 X83.258 Y136.792 E3462.42051
G1 X89.841 Y136.714 E3462.51844
G1 X96.138 Y136.641 E3462.61212
G1 X98.977 Y136.629 E3462.65436
G1 X101.644 Y139.337 E3462.71089
G1 X105.417 Y143.2 E3462.79122
G1 X109.33 Y147.207 E3462.87454
G1 X109.889 Y147.779 E3462.88643
G1 F1500 E3456.38643
G0 F9000 X110 Y147.727
G0 X121.084 Y136.759
G0 X136.606 Y136.881
G0 X136.605 Y136.903
G1 F1500 E3462.88643
G1 X136.902 Y136.605 E3462.89203
G1 F1500 E3456.39203
G0 F9000 X136.881 Y136.605
G0 X136.457 Y120.958
G0 X147.667 Y110
G0 X136.457 Y99.041
G0 X136.634 Y83.366
G0 X120.959 Y83.543
G0 X110 Y72.333
G0 X99.041 Y83.543
G0 X83.217 Y83.116
G0 X83.218 Y83.092
G1 F1500 E3462.89203
G1 X83.093 Y83.217 E3462.89438
G1 F1500 E3456.39438
G0 F9000 X83.117 Y83.218
G0 X83.578 Y99.056
G0 X85.155 Y100.668
G0 X75.588 Y110
G0 X85.828 Y120.012
G0 X85.668 Y134.332
G0 X99.988 Y134.171
G0 X110 Y144.413
G0 X110.142 Y144.369
G0 X110 Y144.23
;TYPE:WALL-OUTER
G1 F1500 E3462.89438
G1 X119.955 Y134.034 E3463.27355
G1 X134.203 Y134.203 E3463.65268
G1 X134.035 Y119.955 E3464.03182
G1 X144.229 Y110 E3464.41095
G1 X134.035 Y100.045 E3464.79007
G1 X134.203 Y85.796 E3465.16924
G1 X119.955 Y85.965 E3465.54838
G1 X110 Y75.77 E3465.92752
G1 X100.045 Y85.965 E3466.30667
G1 X85.797 Y85.796 E3466.68581
G1 X85.965 Y100.045 E3467.06497
G1 X75.771 Y110 E3467.4441
G1 X85.965 Y119.955 E3467.82322
G1 X85.797 Y134.203 E3468.20236
G1 X100.045 Y134.034 E3468.5815
G1 X110 Y144.23 E3468.96066
G0 F9000 X110 Y145.05
G1 F1500 X99.805 Y134.611 E3469.34892
G1 X85.216 Y134.784 E3469.73713
G1 X85.389 Y120.194 E3470.12537
G1 X74.95 Y110 E3470.5136
G1 X85.389 Y99.805 E3470.90185
G1 X85.216 Y85.215 E3471.29009
G1 X99.805 Y85.389 E3471.67831
G1 X110 Y74.949 E3472.06658
G1 X120.195 Y85.389 E3472.45485
G1 X134.784 Y85.215 E3472.84306
G1 X134.61 Y99.805 E3473.2313
G1 X145.05 Y110 E3473.61957
G1 X134.61 Y120.194 E3474.00782
G1 X134.784 Y134.784 E3474.39606
G1 X130.087 Y134.727 E3474.52105
G1 X120.195 Y134.611 E3474.78427
G1 X110 Y145.05 E3475.17252
G0 F9000 X109.881 Y144.676
;TYPE:SKIN
G1 F1500 X120.063 Y134.495 E3475.36409
G0 F9000 X120.234 Y134.323
G1 F1500 X120.514 Y134.326 E3475.36827
G1 X126.943 Y134.402 E3475.46422
G1 X133.372 Y134.479 E3475.56017
G1 X134.21 Y134.489 E3475.57268
G1 X134.489 Y134.21 E3475.57857
G1 X134.413 Y127.781 E3475.67452
G1 X134.336 Y121.352 E3475.77048
G1 X134.323 Y120.234 E3475.78716
G0 F9000 X134.21 Y120.064
G1 F1500 X135.841 Y118.434 E3475.81784
G0 F9000 X135.858 Y118.453
G0 X134.597 Y119.928
G0 X134.612 Y119.945
G1 F1500 X144.676 Y109.881 E3476.00719
G0 F9000 X144.454 Y109.82
G1 F1500 X144.311 Y109.68 E3476.01018
G1 X140.447 Y105.907 E3476.09066
G1 X136.583 Y102.134 E3476.17114
G1 X134.437 Y100.038 E3476.21585
G1 X134.325 Y99.585 E3476.2228
G1 X134.403 Y93.001 E3476.32093
G1 X134.477 Y86.705 E3476.41476
G1 X134.491 Y85.559 E3476.43184
G1 X133.687 Y85.514 E3476.44384
G1 X127.104 Y85.593 E3476.54195
G1 X120.52 Y85.671 E3476.64008
G1 X120.012 Y85.613 E3476.6477
G1 X116.239 Y81.749 E3476.72818
G1 X112.466 Y77.885 E3476.80867
G1 X110.091 Y75.453 E3476.85933
G0 F9000 X110.03 Y75.231
G1 F1500 X107.395 Y77.866 E3476.9089
G0 F9000 X107.413 Y77.884
G0 X108.927 Y76.584
G0 X108.943 Y76.6
G1 F1500 X99.757 Y85.786 E3477.08174
G0 F9000 X99.588 Y85.672
G1 F1500 X99.309 Y85.669 E3477.08588
G1 X92.88 Y85.592 E3477.18139
G1 X86.451 Y85.516 E3477.2769
G1 X85.892 Y85.51 E3477.28521
G1 X85.509 Y85.892 E3477.29324
G1 X85.582 Y92.041 E3477.38459
G1 X85.659 Y98.47 E3477.4801
G1 X85.672 Y99.588 E3477.49671
G0 F9000 X85.786 Y99.758
G1 F1500 X76.547 Y108.996 E3477.67053
G0 F9000 X76.532 Y108.979
G0 X75.528 Y110
G0 X75.533 Y110.01
G1 F1500 X75.374 Y110.17 E3477.67353
G0 F9000 X75.231 Y110.03
G1 F1500 X77.868 Y107.393 E3477.72315
G0 F9000 X77.885 Y107.412
G0 X75.588 Y110
G0 X75.658 Y110.168
G0 X75.597 Y110.229
G1 F1500 X75.74 Y110.369 E3477.72613
G1 X79.603 Y114.142 E3477.80672
G1 X83.467 Y117.915 E3477.88732
G1 X85.614 Y120.011 E3477.9321
G1 X85.667 Y120.806 E3477.94399
G1 X85.589 Y127.389 E3478.04224
G1 X85.515 Y133.686 E3478.13622
G1 X85.559 Y134.492 E3478.14827
G1 X92.142 Y134.413 E3478.24652
G1 X98.439 Y134.338 E3478.3405
G1 X99.867 Y134.325 E3478.36181
G1 X100.876 Y135.296 E3478.38271
G1 X104.649 Y139.16 E3478.46331
G1 X108.422 Y143.023 E3478.54389
G1 X109.82 Y144.455 E3478.57376
G0 F9000 X109.759 Y144.518
G0 X109.953 Y144.434
G0 X118.413 Y135.899
G0 X118.395 Y135.88
G1 F1500 X120.066 Y134.208 E3478.60521
G0 F9000 X120.065 Y134.235
G0 X134.38 Y134.58
G0 X134.379 Y134.603
G1 F1500 X134.602 Y134.38 E3478.6094
G1 F1500 E3472.1094
G0 F9000 X134.58 Y134.38
G0 X134.172 Y120.012
G0 X144.412 Y110
G0 X134.172 Y99.988
G0 X134.332 Y85.667
G0 X120.012 Y85.828
G0 X110 Y75.587
G0 X99.988 Y85.828
G0 X85.722 Y85.419
G0 X85.56 Y85.559
G1 F1500 E3478.6094
G1 X85.418 Y85.418 E3478.61647
G1 F1500 E3472.11647
G0 F9000 X85.442 Y85.416
G0 X85.864 Y100.003
G0 X87.44 Y101.614
G0 X78.843 Y110
G0 X88.113 Y119.066
G0 X87.969 Y132.03
G0 X100.935 Y131.887
G0 X110 Y141.158
G0 X110.142 Y141.114
G0 X110 Y140.975
;TYPE:WALL-OUTER
G1 F1500 E3478.61647
G1 X119.008 Y131.75 E3478.95955
G1 X131.902 Y131.901 E3479.30265
G1 X131.749 Y119.009 E3479.64571
G1 X140.974 Y110 E3479.9888
G1 X131.749 Y100.991 E3480.33189
G1 X131.902 Y88.098 E3480.67498
G1 X119.008 Y88.25 E3481.01809
G1 X110 Y79.025 E3481.36116
G1 X100.992 Y88.25 E3481.70423
G1 X88.098 Y88.098 E3482.04734
G1 X88.25 Y100.991 E3482.39043
G1 X79.026 Y110 E3482.7335
G1 X88.25 Y119.009 E3483.07657
G1 X88.098 Y131.901 E3483.41963
G1 X100.992 Y131.75 E3483.76274
G1 X110 Y140.975 E3484.10581
G0 F9000 X110 Y141.795
G1 F1500 X100.752 Y132.325 E3484.45801
G1 X87.517 Y132.482 E3484.81019
G1 X87.569 Y128.237 E3484.92315
G1 X87.675 Y119.247 E3485.16238
G1 X78.205 Y110 E3485.51456
G1 X87.675 Y100.752 E3485.86676
G1 X87.569 Y91.847 E3486.10372
G1 X87.57 Y91.846 E3486.10376
G1 X87.517 Y87.517 E3486.21895
G1 X100.752 Y87.674 E3486.57114
G1 X110 Y78.204 E3486.92333
G1 X119.248 Y87.674 E3487.27553
G1 X132.483 Y87.517 E3487.62772
G1 X132.431 Y91.762 E3487.74068
G1 X132.325 Y100.752 E3487.9799
G1 X141.795 Y110 E3488.3321
G1 X132.325 Y119.247 E3488.68428
G1 X132.483 Y132.482 E3489.03647
G1 X119.248 Y132.325 E3489.38865
G1 X110 Y141.795 E3489.74085
G0 F9000 X109.952 Y141.494
;TYPE:SKIN
G1 F1500 X113.999 Y137.448 E3489.81698
G0 F9000 X113.982 Y137.431
G0 X112.494 Y138.706
G0 X112.476 Y138.687
G1 F1500 X119.237 Y131.927 E3489.94418
G0 F9000 X119.406 Y132.04
G1 F1500 X119.686 Y132.043 E3489.94838
G1 X126.115 Y132.119 E3490.04487
G1 X131.706 Y132.185 E3490.12878
G1 X132.087 Y132.087 E3490.13469
G1 X132.181 Y131.426 E3490.1447
G1 X132.106 Y124.997 E3490.24119
G1 X132.039 Y119.406 E3490.3251
G0 F9000 X131.927 Y119.237
G1 F1500 X138.687 Y112.476 E3490.4523
G0 F9000 X138.704 Y112.495
G0 X137.431 Y113.982
G0 X137.447 Y113.999
G1 F1500 X141.494 Y109.952 E3490.52844
G0 F9000 X141.271 Y109.891
G1 F1500 X141.129 Y109.751 E3490.53142
G1 X137.265 Y105.978 E3490.61197
G1 X133.401 Y102.205 E3490.69251
G1 X132.114 Y100.947 E3490.71935
G1 X132.041 Y100.455 E3490.72677
G1 X132.115 Y94.158 E3490.82069
G1 X132.191 Y87.859 E3490.91465
G1 X131.099 Y87.82 E3490.93094
G1 X124.516 Y87.898 E3491.02913
G1 X119.364 Y87.958 E3491.10598
G1 X118.963 Y87.794 E3491.11244
G1 X115.19 Y83.93 E3491.19298
G1 X111.416 Y80.066 E3491.27354
G1 X110.158 Y78.778 E3491.30039
G0 F9000 X110.098 Y78.557
G1 F1500 X101.589 Y87.066 E3491.46049
G0 F9000 X101.607 Y87.084
G0 X100.832 Y87.867
G0 X100.695 Y87.959
G1 F1500 X100.416 Y87.956 E3491.46465
G1 X93.987 Y87.88 E3491.56047
G1 X88.117 Y87.81 E3491.64795
G1 X87.81 Y88.116 E3491.65441
G1 X87.887 Y94.545 E3491.75023
G1 X87.96 Y100.695 E3491.84189
G0 F9000 X88.073 Y100.865
G1 F1500 X85.779 Y103.159 E3491.88506
G0 F9000 X85.763 Y103.141
G0 X87.081 Y101.611
G0 X87.063 Y101.592
G1 F1500 X78.557 Y110.098 E3492.04509
G0 F9000 X78.779 Y110.158
G1 F1500 X78.922 Y110.298 E3492.04807
G1 X82.642 Y113.932 E3492.12532
G1 X86.363 Y117.565 E3492.20258
G1 X87.933 Y119.106 E3492.23526
G1 X87.939 Y121.081 E3492.2646
G1 X87.86 Y127.664 E3492.36241
G1 X87.809 Y131.959 E3492.42622
G1 X87.86 Y132.19 E3492.42973
G1 X94.444 Y132.112 E3492.52755
G1 X100.74 Y132.038 E3492.62109
G1 X101.227 Y132.4 E3492.63011
G1 X104.999 Y136.263 E3492.71032
G1 X108.773 Y140.127 E3492.79056
G1 X109.891 Y141.272 E3492.81433
G0 F9000 X109.83 Y141.335
G0 X119.191 Y132.188
G0 X132.156 Y132.279
G0 X132.155 Y132.302
G1 F1500 X132.301 Y132.156 E3492.81708
G1 F1500 E3486.31708
G0 F9000 X132.279 Y132.156
G0 X131.886 Y119.066
G0 X141.157 Y110
G0 X131.886 Y100.934
G0 X132.031 Y87.969
G0 X119.065 Y88.113
G0 X110 Y78.842
G0 X100.866 Y88.048
G0 X100.865 Y88.073
G1 F1500 E3492.81708
G1 X103.159 Y85.779 E3492.86024
G0 F9000 X103.143 Y85.762
G0 X100.809 Y87.811
G0 X87.946 Y87.721
G0 X87.947 Y87.697
G1 F1500 X87.698 Y87.947 E3492.86493
G1 F1500 E3486.36493
G0 F9000 X87.723 Y87.947
G0 X88.149 Y100.949
G0 X89.725 Y102.56
G0 X82.097 Y110
G0 X90.398 Y118.119
G0 X90.271 Y129.729
G0 X101.88 Y129.601
G0 X110 Y137.903
G0 X110.142 Y137.859
G0 X110 Y137.72
;TYPE:WALL-OUTER
G1 F1500 E3492.86493
G1 X118.062 Y129.464 E3493.17198
G1 X129.6 Y129.6 E3493.479
G1 X129.465 Y118.062 E3493.78603
G1 X137.72 Y110 E3494.09305
G1 X129.465 Y101.937 E3494.40009
G1 X129.6 Y90.399 E3494.70711
G1 X118.062 Y90.535 E3495.01414
G1 X110 Y82.28 E3495.32116
G1 X101.937 Y90.535 E3495.6282
G1 X90.4 Y90.399 E3495.9352
G1 X90.535 Y101.937 E3496.24223
G1 X82.28 Y110 E3496.54927
G1 X90.535 Y118.062 E3496.85629
G1 X90.4 Y129.6 E3497.16332
G1 X101.937 Y129.464 E3497.47031
G1 X110 Y137.72 E3497.77737
G0 F9000 X110 Y138.54
G1 F1500 X101.699 Y130.04 E3498.0935
G1 X89.819 Y130.182 E3498.40963
G1 X89.865 Y126.388 E3498.51059
G1 X89.959 Y118.301 E3498.72578
G1 X81.459 Y110 E3499.04191
G1 X89.959 Y101.698 E3499.35806
G1 X89.819 Y89.818 E3499.67419
G1 X93.697 Y89.865 E3499.77738
G1 X93.698 Y89.864 E3499.77742
G1 X101.699 Y89.96 E3499.99033
G1 X110 Y81.459 E3500.30647
G1 X118.301 Y89.96 E3500.62262
G1 X130.181 Y89.818 E3500.93875
G1 X130.04 Y101.698 E3501.25488
G1 X138.541 Y110 E3501.57104
G1 X130.04 Y118.301 E3501.88719
G1 X130.181 Y130.182 E3502.20334
G1 X118.301 Y130.04 E3502.51947
G1 X110 Y138.54 E3502.8356
G0 F9000 X109.883 Y138.169
;TYPE:SKIN
G1 F1500 X118.411 Y129.641 E3502.99605
G0 F9000 X118.579 Y129.756
G1 F1500 X118.859 Y129.759 E3503.00027
G1 X125.288 Y129.835 E3503.09718
G1 X129.481 Y129.884 E3503.16039
G1 X129.824 Y129.824 E3503.16564
G1 X129.878 Y128.922 E3503.17926
G1 X129.802 Y122.492 E3503.27619
G1 X129.756 Y118.579 E3503.33517
G0 F9000 X129.643 Y118.409
G1 F1500 X138.17 Y109.882 E3503.49561
G0 F9000 X137.947 Y109.822
G1 F1500 X137.804 Y109.682 E3503.49859
G1 X133.94 Y105.908 E3503.57902
G1 X130.077 Y102.135 E3503.65943
G1 X129.791 Y101.855 E3503.66539
G1 X129.767 Y100.466 E3503.68607
G1 X129.845 Y93.882 E3503.78413
G1 X129.889 Y90.162 E3503.83953
G1 X128.798 Y90.12 E3503.85578
G1 X122.215 Y90.199 E3503.95382
G1 X118.217 Y90.236 E3504.01336
G1 X116.935 Y88.973 E3504.04016
G1 X113.302 Y85.252 E3504.1176
G1 X110.088 Y81.961 E3504.1861
G0 F9000 X110.027 Y81.739
G1 F1500 X107.572 Y84.194 E3504.23229
G0 F9000 X107.59 Y84.212
G0 X109.091 Y82.926
G0 X109.107 Y82.942
G1 F1500 X101.692 Y90.357 E3504.3718
G0 F9000 X101.523 Y90.243
G1 F1500 X101.243 Y90.239 E3504.376
G1 X94.814 Y90.163 E3504.47253
G1 X90.341 Y90.111 E3504.53969
G1 X90.111 Y90.341 E3504.54457
G1 X90.184 Y96.492 E3504.63692
G1 X90.243 Y101.523 E3504.71245
G0 F9000 X90.356 Y101.693
G1 F1500 X82.941 Y109.108 E3504.85196
G0 F9000 X82.926 Y109.091
G0 X82.037 Y110
G0 X82.041 Y110.008
G1 F1500 X81.881 Y110.168 E3504.85497
G0 F9000 X81.738 Y110.028
G1 F1500 X84.212 Y107.554 E3504.90152
G0 F9000 X84.229 Y107.573
G0 X82.097 Y110
G0 X82.166 Y110.166
G0 X82.104 Y110.227
G1 F1500 X82.247 Y110.367 E3504.90451
G1 X86.254 Y114.281 E3504.98819
G1 X90.117 Y118.054 E3505.06885
G1 X90.242 Y118.494 E3505.07568
G1 X90.169 Y124.791 E3505.16975
G1 X90.111 Y129.656 E3505.24243
G1 X90.16 Y129.889 E3505.24599
G1 X96.745 Y129.811 E3505.34436
G1 X101.611 Y129.753 E3505.41705
G1 X101.996 Y129.933 E3505.4234
G1 X105.769 Y133.797 E3505.50407
G1 X109.683 Y137.803 E3505.58774
G1 X109.822 Y137.946 E3505.59072
G0 F9000 X109.883 Y137.885
G0 X110 Y137.903
G0 X118.244 Y129.903
G0 X129.931 Y129.98
G0 X129.93 Y130.002
G1 F1500 X130.001 Y129.93 E3505.59206
G1 F1500 E3499.09206
G0 F9000 X129.978 Y129.93
G0 X129.602 Y118.119
G0 X137.903 Y110
G0 X129.602 Y101.88
G0 X129.729 Y90.27
G0 X118.119 Y90.398
G0 X110 Y82.097
G0 X101.88 Y90.398
G0 X90.172 Y90.022
G0 X90.173 Y89.997
G1 F1500 E3505.59206
G1 X89.998 Y90.172 E3505.59535
G1 F1500 E3499.09535
G0 F9000 X90.023 Y90.172
G0 X90.434 Y101.895
G0 X92.011 Y103.507
G0 X85.352 Y110
G0 X92.684 Y117.173
G0 X92.572 Y127.428
G0 X102.827 Y127.316
G0 X110 Y134.648
G0 X110.142 Y134.604
G0 X110 Y134.465
;TYPE:WALL-OUTER
G1 F1500 E3505.59535
G1 X117.115 Y127.179 E3505.86632
G1 X127.299 Y127.299 E3506.13732
G1 X127.179 Y117.116 E3506.40829
G1 X134.465 Y110 E3506.67928
G1 X127.179 Y102.884 E3506.95027
G1 X127.299 Y92.701 E3507.22124
G1 X117.115 Y92.821 E3507.49223
G1 X110 Y85.535 E3507.7632
G1 X102.884 Y92.821 E3508.03419
G1 X92.701 Y92.701 E3508.30516
G1 X92.821 Y102.884 E3508.57613
G1 X85.535 Y110 E3508.84712
G1 X92.821 Y117.116 E3509.11811
G1 X92.701 Y127.299 E3509.38908
G1 X102.884 Y127.179 E3509.66005
G1 X110 Y134.465 E3509.93104
G0 F9000 X110 Y135.285
G1 F1500 X102.645 Y127.754 E3510.21113
G1 X95.548 Y127.839 E3510.39998
G1 X95.547 Y127.838 E3510.40002
G1 X92.121 Y127.88 E3510.49119
G1 X92.245 Y117.354 E3510.77128
G1 X84.714 Y110 E3511.05136
G1 X92.245 Y102.645 E3511.33146
G1 X92.121 Y92.12 E3511.61153
G1 X102.645 Y92.245 E3511.89157
G1 X110 Y84.714 E3512.17167
G1 X117.355 Y92.245 E3512.45176
G1 X127.879 Y92.12 E3512.73181
G1 X127.755 Y102.645 E3513.01188
G1 X135.286 Y110 E3513.29197
G1 X127.755 Y117.354 E3513.57205
G1 X127.841 Y124.536 E3513.76317
G1 X127.879 Y127.88 E3513.85215
G1 X117.355 Y127.754 E3514.13219
G1 X110 Y135.285 E3514.41229
G0 F9000 X109.955 Y134.986
;TYPE:SKIN
G1 F1500 X113.848 Y131.093 E3514.48553
G0 F9000 X113.831 Y131.076
G0 X112.315 Y132.379
G0 X112.297 Y132.361
G1 F1500 X117.304 Y127.354 E3514.57974
G0 F9000 X117.473 Y127.468
G1 F1500 X117.752 Y127.471 E3514.58391
G1 X124.181 Y127.548 E3514.67994
G1 X127.256 Y127.584 E3514.72587
G1 X127.584 Y127.255 E3514.73281
G1 X127.509 Y120.826 E3514.82885
G1 X127.469 Y117.471 E3514.87896
G0 F9000 X127.356 Y117.302
G1 F1500 X132.342 Y112.316 E3514.97277
G0 F9000 X132.359 Y112.335
G0 X131.077 Y113.831
G0 X131.093 Y113.848
G1 F1500 X134.988 Y109.953 E3515.04605
G0 F9000 X134.765 Y109.893
G1 F1500 X134.622 Y109.753 E3515.04904
G1 X130.758 Y105.98 E3515.12967
G1 X127.61 Y102.905 E3515.19537
G1 X127.469 Y102.481 E3515.20204
G1 X127.546 Y95.898 E3515.30034
G1 X127.587 Y92.463 E3515.35162
G1 X126.496 Y92.423 E3515.36792
G1 X119.913 Y92.501 E3515.46621
G1 X117.337 Y92.531 E3515.50468
G1 X116.725 Y92.012 E3515.51666
G1 X112.952 Y88.148 E3515.59729
G1 X110.157 Y85.286 E3515.65701
G0 F9000 X110.096 Y85.064
G1 F1500 X102.519 Y92.641 E3515.79957
G0 F9000 X102.35 Y92.527
G1 F1500 X102.071 Y92.524 E3515.80378
G1 X95.641 Y92.448 E3515.90075
G1 X92.846 Y92.415 E3515.9429
G1 X92.489 Y92.489 E3515.9484
G1 X92.421 Y93.405 E3515.96225
G1 X92.497 Y99.834 E3516.0592
G1 X92.527 Y102.35 E3516.09714
G0 F9000 X92.64 Y102.52
G1 F1500 X85.064 Y110.097 E3516.23969
G0 F9000 X85.286 Y110.157
G1 F1500 X85.429 Y110.297 E3516.24267
G1 X89.293 Y114.07 E3516.3231
G1 X92.441 Y117.144 E3516.38862
G1 X92.528 Y117.623 E3516.39587
G1 X92.45 Y124.206 E3516.49391
G1 X92.413 Y127.354 E3516.5408
G1 X92.462 Y127.588 E3516.54436
G1 X99.046 Y127.509 E3516.64241
G1 X102.481 Y127.468 E3516.69357
G1 X102.906 Y127.61 E3516.70025
G1 X106.679 Y131.473 E3516.78066
G1 X109.893 Y134.764 E3516.84916
G0 F9000 X109.832 Y134.828
G0 X117.298 Y127.617
G0 X127.426 Y127.675
G0 X127.425 Y127.698
G1 F1500 X127.697 Y127.426 E3516.85428
G1 F1500 E3510.35428
G0 F9000 X127.673 Y127.426
G0 X127.316 Y117.173
G0 X134.648 Y110
G0 X127.316 Y102.827
G0 X127.428 Y92.572
G0 X117.172 Y92.684
G0 X110 Y85.352
G0 X102.8 Y92.62
G0 X102.799 Y92.644
G1 F1500 E3516.85428
G1 X103.286 Y92.157 E3516.86344
G0 F9000 X103.27 Y92.14
G0 X102.759 Y92.357
G0 X92.396 Y92.323
G0 X92.397 Y92.298
G1 F1500 X92.299 Y92.396 E3516.86529
G0 F9000 X92.325 Y92.396
G0 X92.619 Y102.8
G0 X92.643 Y102.8
G1 F1500 X92.157 Y103.287 E3516.87444
G1 F1500 E3510.37444
G0 F9000 X92.142 Y103.268
G0 X87.386 Y108.052
G0 X88.975 Y109.678
G0 X88.606 Y110
G0 X94.969 Y116.226
G0 X94.873 Y125.126
G0 X103.774 Y125.03
G0 X110 Y131.394
G0 X110.142 Y131.35
G0 X110 Y131.211
;TYPE:WALL-OUTER
G1 F1500 E3516.87444
G1 X116.169 Y124.893 E3517.1094
G1 X124.998 Y124.997 E3517.34434
G1 X124.894 Y116.169 E3517.57925
G1 X131.211 Y110 E3517.81419
G1 X124.894 Y103.831 E3518.04913
G1 X124.998 Y95.002 E3518.28407
G1 X116.169 Y95.106 E3518.519
G1 X110 Y88.789 E3518.75394
G1 X103.831 Y95.106 E3518.98888
G1 X95.002 Y95.002 E3519.22382
G1 X95.106 Y103.831 E3519.45876
G1 X88.789 Y110 E3519.6937
G1 X95.106 Y116.169 E3519.92863
G1 X95.037 Y121.975 E3520.08313
G1 X95.038 Y121.976 E3520.08317
G1 X95.002 Y124.997 E3520.16356
G1 X103.831 Y124.893 E3520.3985
G1 X110 Y131.211 E3520.63345
G0 F9000 X110 Y132.03
G1 F1500 X103.592 Y125.47 E3520.87746
G1 X97.397 Y125.544 E3521.04231
G1 X97.396 Y125.543 E3521.04235
G1 X94.421 Y125.578 E3521.12151
G1 X94.53 Y116.408 E3521.36553
G1 X87.969 Y110 E3521.60955
G1 X94.53 Y103.591 E3521.8536
G1 X94.421 Y94.422 E3522.09758
G1 X103.592 Y94.53 E3522.34162
G1 X110 Y87.969 E3522.58565
G1 X116.408 Y94.53 E3522.82967
G1 X122.686 Y94.455 E3522.99673
G1 X125.578 Y94.422 E3523.07369
G1 X125.469 Y103.591 E3523.31768
G1 X132.031 Y110 E3523.56174
G1 X125.469 Y116.408 E3523.80578
G1 X125.578 Y125.578 E3524.0498
G1 X116.408 Y125.47 E3524.29381
G1 X110 Y132.03 E3524.53782
G0 F9000 X109.885 Y131.661
;TYPE:SKIN
G1 F1500 X116.477 Y125.07 E3524.66183
G0 F9000 X116.645 Y125.184
G1 F1500 X116.925 Y125.188 E3524.66605
G1 X123.353 Y125.264 E3524.76288
G1 X125.031 Y125.284 E3524.78815
G1 X125.283 Y125.031 E3524.79353
G1 X125.211 Y118.881 E3524.88617
G1 X125.184 Y116.645 E3524.91985
G0 F9000 X125.072 Y116.475
G1 F1500 X131.662 Y109.885 E3525.04384
G0 F9000 X131.44 Y109.824
G1 F1500 X131.296 Y109.684 E3525.04684
G1 X127.576 Y106.05 E3525.12437
G1 X125.287 Y103.814 E3525.17207
G1 X125.185 Y103.351 E3525.17914
G1 X125.262 Y96.768 E3525.27729
G1 X125.286 Y94.764 E3525.30717
G1 X124.195 Y94.724 E3525.32344
G1 X117.612 Y94.801 E3525.42159
G1 X116.235 Y94.764 E3525.44213
G1 X112.602 Y91.043 E3525.51966
G1 X110.086 Y88.468 E3525.57333
G0 F9000 X110.025 Y88.247
G1 F1500 X107.749 Y90.523 E3525.61615
G0 F9000 X107.767 Y90.541
G0 X109.275 Y89.246
G0 X109.292 Y89.263
G1 F1500 X103.627 Y94.928 E3525.72274
G0 F9000 X103.457 Y94.814
G1 F1500 X103.177 Y94.811 E3525.72691
G1 X97.028 Y94.738 E3525.81861
G1 X95.071 Y94.715 E3525.8478
G1 X94.715 Y95.071 E3525.85531
G1 X94.791 Y101.5 E3525.95118
G1 X94.814 Y103.457 E3525.98037
G0 F9000 X94.927 Y103.627
G1 F1500 X89.262 Y109.293 E3526.08696
G0 F9000 X89.246 Y109.275
G0 X88.546 Y110
G0 X88.548 Y110.007
G1 F1500 X88.389 Y110.165 E3526.08995
G0 F9000 X88.246 Y110.025
G1 F1500 X90.545 Y107.727 E3526.13319
G0 F9000 X90.562 Y107.746
G0 X88.606 Y110
G0 X88.672 Y110.164
G0 X88.611 Y110.226
G1 F1500 X88.754 Y110.366 E3526.13618
G1 X92.618 Y114.139 E3526.21695
G1 X94.764 Y116.235 E3526.26182
G1 X94.805 Y117.326 E3526.27815
G1 X94.727 Y123.909 E3526.37661
G1 X94.765 Y125.286 E3526.39721
G1 X101.061 Y125.212 E3526.49138
G1 X103.637 Y125.181 E3526.52991
G1 X104.514 Y126.002 E3526.54787
G1 X108.287 Y129.866 E3526.62864
G1 X109.824 Y131.44 E3526.66155
G0 F9000 X109.885 Y131.378
G0 X110 Y131.394
G0 X116.351 Y125.334
G0 X125.202 Y125.374
G0 X125.201 Y125.397
G1 F1500 X125.396 Y125.201 E3526.66522
G1 F1500 E3520.16522
G0 F9000 X125.373 Y125.201
G0 X125.031 Y116.226
G0 X131.394 Y110
G0 X125.031 Y103.774
G0 X125.127 Y94.873
G0 X116.226 Y94.969
G0 X110 Y88.606
G0 X103.774 Y94.969
G0 X94.901 Y94.627
G0 X94.902 Y94.602
G1 F1500 E3526.66522
G1 X94.603 Y94.901 E3526.67085
G1 F1500 E3520.17085
G0 F9000 X94.627 Y94.901
G0 X95.005 Y103.789
G0 X96.595 Y105.415
G0 X110.142 Y128.095
G0 X110 Y127.956
;TYPE:WALL-OUTER
G1 F1500 E3526.67085
G1 X115.223 Y122.608 E3526.86976
G1 X122.696 Y122.696 E3527.06861
G1 X122.608 Y115.222 E3527.26749
G1 X127.956 Y110 E3527.46638
G1 X122.608 Y104.778 E3527.66527
G1 X122.696 Y97.304 E3527.86415
G1 X115.223 Y97.391 E3528.06301
G1 X110 Y92.044 E3528.26189
G1 X104.777 Y97.391 E3528.46078
G1 X97.304 Y97.304 E3528.65963
G1 X97.391 Y104.778 E3528.85852
G1 X92.045 Y110 E3529.05736
G1 X97.391 Y115.222 E3529.25621
G1 X97.304 Y122.696 E3529.45509
G1 X104.777 Y122.608 E3529.65395
G1 X110 Y127.956 E3529.85286
G0 F9000 X110 Y128.776
G1 F1500 X104.539 Y123.183 E3530.06085
G1 X96.723 Y123.277 E3530.26883
G1 X96.816 Y115.462 E3530.47679
G1 X91.224 Y110 E3530.68478
G1 X96.816 Y104.538 E3530.89278
G1 X96.751 Y99.163 E3531.0358
G1 X96.723 Y96.723 E3531.10073
G1 X104.539 Y96.816 E3531.30872
G1 X110 Y91.223 E3531.51671
G1 X115.461 Y96.816 E3531.7247
G1 X123.277 Y96.723 E3531.93269
G1 X123.184 Y104.538 E3532.14064
G1 X128.776 Y110 E3532.34864
G1 X123.184 Y115.462 E3532.55663
G1 X123.249 Y120.837 E3532.69966
G1 X123.277 Y123.277 E3532.76459
G1 X115.461 Y123.183 E3532.97257
G1 X110 Y128.776 E3533.18056
G0 F9000 X109.956 Y128.479
;TYPE:SKIN
G1 F1500 X113.671 Y124.764 E3533.25046
G0 F9000 X113.655 Y124.747
G0 X112.195 Y125.994
G0 X112.177 Y125.976
G1 F1500 X115.369 Y122.784 E3533.31052
G0 F9000 X115.539 Y122.896
G1 F1500 X115.818 Y122.9 E3533.31476
G1 X122.247 Y122.977 E3533.41251
G1 X122.894 Y122.895 E3533.42243
G1 X122.977 Y122.246 E3533.43238
G1 X122.9 Y115.818 E3533.53011
G1 X122.896 Y115.538 E3533.53437
G0 F9000 X122.784 Y115.368
G1 F1500 X126.001 Y112.152 E3533.59489
G0 F9000 X126.018 Y112.171
G0 X124.707 Y113.695
G0 X124.723 Y113.713
G1 F1500 X128.48 Y109.955 E3533.66559
G0 F9000 X128.257 Y109.895
G1 F1500 X128.114 Y109.755 E3533.66857
G1 X124.251 Y105.981 E3533.74924
G1 X122.963 Y104.724 E3533.77612
G1 X122.903 Y103.935 E3533.78793
G1 X122.981 Y97.352 E3533.88626
G1 X122.985 Y97.066 E3533.89054
G1 X121.893 Y97.026 E3533.90686
G1 X115.596 Y97.1 E3534.00091
G1 X115.186 Y96.945 E3534.00746
G1 X111.412 Y93.081 E3534.08813
G1 X110.154 Y91.793 E3534.11502
G0 F9000 X110.094 Y91.572
G1 F1500 X104.454 Y97.212 E3534.22114
G0 F9000 X104.284 Y97.098
G1 F1500 X104.005 Y97.095 E3534.22534
G1 X97.576 Y97.019 E3534.32227
G1 X97.296 Y97.016 E3534.32649
G1 X97.016 Y97.296 E3534.33246
G1 X97.092 Y103.725 E3534.42939
G1 X97.099 Y104.284 E3534.43782
G0 F9000 X97.211 Y104.455
G1 F1500 X91.571 Y110.095 E3534.54393
G0 F9000 X91.794 Y110.155
G1 F1500 X91.937 Y110.294 E3534.54691
G1 X95.8 Y114.068 E3534.62769
G1 X97.079 Y115.334 E3534.65461
G1 X97.073 Y117.886 E3534.69278
G1 X97.016 Y122.752 E3534.76557
G1 X97.066 Y122.985 E3534.76913
G1 X103.649 Y122.906 E3534.8676
G1 X104.724 Y122.962 E3534.8837
G1 X108.357 Y126.683 E3534.96149
G1 X109.895 Y128.257 E3534.99441
G0 F9000 X110 Y128.199
G0 X115.404 Y123.046
G0 X122.976 Y123.074
G0 X122.975 Y123.097
G1 F1500 X123.097 Y122.975 E3534.9967
G1 F1500 E3528.4967
G0 F9000 X123.073 Y122.975
G0 X122.745 Y115.279
G0 X128.139 Y110
G0 X122.745 Y104.721
G0 X122.825 Y97.175
G0 X115.28 Y97.254
G0 X110 Y91.861
G0 X104.72 Y97.254
G0 X97.126 Y96.927
G0 X97.127 Y96.902
G1 F1500 E3534.9967
G1 X96.903 Y97.126 E3535.00092
G1 F1500 E3528.50092
G0 F9000 X96.928 Y97.126
G0 X97.29 Y104.736
G0 X98.452 Y106.286
G0 X95.117 Y110
G0 X99.54 Y114.332
G0 X99.476 Y120.523
G0 X105.667 Y120.459
G0 X110 Y124.884
G0 X110.142 Y124.84
G0 X110 Y124.701
;TYPE:WALL-OUTER
G1 F1500 E3535.00092
G1 X111.54 Y123.126 E3535.05953
G1 X114.276 Y120.322 E3535.16377
G1 X120.395 Y120.394 E3535.3266
G1 X120.323 Y114.275 E3535.48942
G1 X124.701 Y110 E3535.65224
G1 X120.323 Y105.725 E3535.81505
G1 X120.395 Y99.605 E3535.97791
G1 X114.276 Y99.677 E3536.14073
G1 X110 Y95.299 E3536.30357
G1 X105.724 Y99.677 E3536.4664
G1 X99.605 Y99.605 E3536.62923
G1 X99.677 Y105.725 E3536.79208
G1 X95.3 Y110 E3536.95488
G1 X99.677 Y114.275 E3537.11767
G1 X99.605 Y120.394 E3537.2805
G1 X105.724 Y120.322 E3537.44333
G1 X108.459 Y123.125 E3537.54753
G1 X110 Y124.701 E3537.60618
G0 F9000 X110 Y125.521
G1 F1500 X105.486 Y120.898 E3537.7781
G1 X100.133 Y120.963 E3537.92055
G1 X99.024 Y120.975 E3537.95006
G1 X99.101 Y114.514 E3538.12198
G1 X98.147 Y113.584 E3538.15743
G1 X94.478 Y110 E3538.29391
G1 X98.368 Y106.2 E3538.4386
G1 X99.101 Y105.486 E3538.46583
G1 X99.024 Y99.025 E3538.63776
G1 X105.486 Y99.102 E3538.80971
G1 X110 Y94.478 E3538.98165
G1 X114.514 Y99.102 E3539.15359
G1 X120.023 Y99.035 E3539.30019
G1 X120.976 Y99.025 E3539.32555
G1 X120.898 Y105.486 E3539.49748
G1 X125.522 Y110 E3539.66942
G1 X120.898 Y114.514 E3539.84136
G1 X120.976 Y120.975 E3540.01329
G1 X114.514 Y120.898 E3540.18524
G1 X113.713 Y121.72 E3540.21578
G1 X110 Y125.521 E3540.35716
G0 F9000 X109.887 Y125.154
;TYPE:SKIN
G1 F1500 X114.543 Y120.498 E3540.44476
G0 F9000 X114.711 Y120.612
G1 F1500 X114.991 Y120.616 E3540.44895
G1 X120.301 Y120.68 E3540.52838
G1 X120.679 Y120.301 E3540.53639
G1 X120.613 Y114.711 E3540.62
G0 F9000 X120.501 Y114.54
G1 F1500 X125.155 Y109.886 E3540.70757
G0 F9000 X124.932 Y109.826
G1 F1500 X124.789 Y109.686 E3540.71057
G1 X121.068 Y106.053 E3540.78849
G1 X120.64 Y105.633 E3540.79747
G1 X120.632 Y103.661 E3540.82702
G1 X120.684 Y99.367 E3540.89137
G1 X119.592 Y99.326 E3540.90774
G1 X114.445 Y99.383 E3540.98487
G1 X113.298 Y98.267 E3541.00885
G1 X110.084 Y94.976 E3541.07777
G0 F9000 X110.023 Y94.754
G1 F1500 X107.954 Y96.823 E3541.1167
G0 F9000 X107.972 Y96.841
G0 X109.454 Y95.573
G0 X109.47 Y95.59
G1 F1500 X105.56 Y99.5 E3541.19027
G0 F9000 X105.391 Y99.386
G1 F1500 X105.111 Y99.383 E3541.19455
G1 X99.8 Y99.319 E3541.27573
G1 X99.419 Y99.418 E3541.28175
G1 X99.323 Y100.079 E3541.29196
G1 X99.386 Y105.391 E3541.37316
G0 F9000 X99.499 Y105.561
G1 F1500 X95.537 Y109.523 E3541.4477
G0 F9000 X95.056 Y110.004
G1 F1500 X94.896 Y110.164 E3541.45071
G0 F9000 X94.753 Y110.024
G1 F1500 X96.887 Y107.891 E3541.49086
G0 F9000 X96.904 Y107.909
G0 X95.117 Y110
G0 X95.181 Y110.162
G0 X95.119 Y110.223
G1 F1500 X95.262 Y110.363 E3541.49386
G1 X99.126 Y114.136 E3541.57494
G1 X99.384 Y114.444 E3541.58097
G1 X99.316 Y120.451 E3541.67116
G1 X99.367 Y120.683 E3541.67472
G1 X105.378 Y120.611 E3541.76497
G1 X105.773 Y120.782 E3541.77143
G1 X109.407 Y124.502 E3541.8495
G1 X109.826 Y124.931 E3541.85851
G0 F9000 X109.765 Y124.995
G0 X111.267 Y124.049
G0 X114.457 Y120.761
G0 X120.472 Y120.77
G0 X120.631 Y120.632
G1 F1500 X120.773 Y120.774 E3541.86544
G1 F1500 E3535.36544
G0 F9000 X120.751 Y120.773
G0 X114.333 Y120.459
G0 X110 Y124.884
G0 X105.667 Y120.459
G0 X99.476 Y120.523
G0 X99.54 Y114.332
G0 X95.117 Y110
G0 X99.54 Y105.668
G0 X99.228 Y99.351
G0 X99.204 Y99.351
G1 F1500 E3541.86544
G1 X99.352 Y99.203 E3541.86822
G1 F1500 E3535.36822
;MESH:NONMESH
G0 F300 X99.352 Y99.203 Z17.16
G0 F9000 X99.351 Y99.228
G0 X99.54 Y105.668
G0 X95.117 Y110
G0 X99.54 Y114.332
G0 X99.476 Y120.523
G0 X105.528 Y120.777
G0 X105.127 Y121.763
G0 X95.958 Y144.888
G0 X95.269 Y145.562
G0 X110.185 Y160.598
G0 X110 Y160.417
;TIME_ELAPSED:45840.251642
;LAYER:106
;TYPE:WALL-OUTER
;MESH:Fidget_Star_8-Point.stl
G1 F1500 E3541.86822
G1 X124.663 Y145.401 E3542.42667
G1 X138.841 Y145.57 E3542.80394
G1 X145.649 Y145.649 E3542.9851
G1 X145.4 Y124.664 E3543.54351
G1 X160.416 Y110 E3544.10198
G1 X145.4 Y95.337 E3544.66042
G1 X145.57 Y81.159 E3545.0377
G1 X145.649 Y74.351 E3545.21886
G1 X124.663 Y74.599 E3545.77729
G1 X110 Y59.583 E3546.33574
G1 X95.337 Y74.599 E3546.89418
G1 X81.158 Y74.43 E3547.27148
G1 X74.35 Y74.351 E3547.45264
G1 X74.599 Y95.337 E3548.01108
G1 X59.584 Y110 E3548.5695
G1 X74.599 Y124.664 E3549.12795
G1 X74.429 Y138.842 E3549.50522
G1 X74.35 Y145.649 E3549.68636
G1 X95.337 Y145.401 E3550.24482
G1 X110 Y160.417 E3550.80326
G0 F9000 X110 Y161.235
G1 F1500 X95.098 Y145.975 E3551.37079
G1 X80.355 Y146.151 E3551.76311
